;FLAVOR:Marlin
;TIME:9521
;Filament used: 11.024m
;Layer height: 0.2
;MINX:8.099
;MINY:9.346
;MINZ:0.2
;MAXX:136.187
;MAXY:203.354
;MAXZ:3.4
;Generated with Cura_SteamEngine 5.3.0
M140 S60
M105
M190 S60
M104 S230
M105
M109 S230
M82 ;absolute extrusion mode
M201 X500.00 Y500.00 Z100.00 E5000.00 ;Setup machine max acceleration
M203 X500.00 Y500.00 Z10.00 E50.00 ;Setup machine max feedrate
M204 P500.00 R1000.00 T500.00 ;Setup Print/Retract/Travel acceleration
M205 X8.00 Y8.00 Z0.40 E5.00 ;Setup Jerk
M220 S100 ;Reset Feedrate
M221 S100 ;Reset Flowrate

G28 ;Home
G29 ;Auto bed Level
M420 S1 ;Save and use mesh

G92 E0 ;Reset Extruder
G1 Z2.0 F3000 ;Move Z Axis up
G1 X10.1 Y20 Z0.28 F5000.0 ;Move to start position
G1 X10.1 Y200.0 Z0.28 F1500.0 E15 ;Draw the first line
G1 X10.4 Y200.0 Z0.28 F5000.0 ;Move to side a little
G1 X10.4 Y20 Z0.28 F1500.0 E30 ;Draw the second line
G92 E0 ;Reset Extruder
G1 Z2.0 F3000 ;Move Z Axis up

G92 E0
G92 E0
G1 F2700 E-5
;LAYER_COUNT:18
;LAYER:0
M107
G0 F6000 X16.464 Y13.603 Z0.2
;TYPE:SKIRT
G1 F2700 E0.09562
G1 F1200 X17.091 Y12.953 E0.12566
G1 X17.773 Y12.362 E0.15568
G1 X18.505 Y11.832 E0.18573
G1 X19.281 Y11.37 E0.21577
G1 X20.094 Y10.978 E0.24579
G1 X20.939 Y10.66 E0.27582
G1 X21.809 Y10.418 E0.30586
G1 X22.697 Y10.253 E0.3359
G1 X23.822 Y10.159 E0.37344
G1 X24.429 Y10.146 E0.39364
G1 X65.392 Y10.146 E1.75607
G1 X66.242 Y10.157 E1.78435
G1 X67.146 Y10.192 E1.81444
G1 X68.924 Y10.292 E1.87367
G1 X71.453 Y10.363 E1.95781
G1 X73.987 Y10.361 E2.0421
G1 X76.569 Y10.287 E2.12801
G1 X78.656 Y10.178 E2.19752
G1 X79.517 Y10.154 E2.22616
G1 X120.626 Y10.155 E3.59346
G1 X121.324 Y10.165 E3.61667
G1 X122.226 Y10.218 E3.64673
G1 X123.119 Y10.35 E3.67675
G1 X123.997 Y10.561 E3.70678
G1 X124.853 Y10.849 E3.73682
G1 X125.68 Y11.211 E3.76685
G1 X126.472 Y11.646 E3.7969
G1 X127.223 Y12.148 E3.82695
G1 X127.926 Y12.715 E3.85699
G1 X128.576 Y13.342 E3.88702
G1 X129.168 Y14.024 E3.91706
G1 X129.698 Y14.755 E3.94709
G1 X130.16 Y15.531 E3.97713
G1 X130.553 Y16.344 E4.00716
G1 X130.871 Y17.189 E4.03719
G1 X131.114 Y18.059 E4.06724
G1 X131.279 Y18.947 E4.09728
G1 X131.374 Y20.071 E4.1348
G1 X131.387 Y20.677 E4.15496
G1 X131.387 Y26.32 E4.34264
G1 X131.424 Y28.926 E4.42933
G1 X131.533 Y31.491 E4.51472
G1 X131.711 Y33.998 E4.59831
G1 X131.962 Y36.539 E4.68324
G1 X132.283 Y39.047 E4.76733
G1 X132.677 Y41.552 E4.85167
G1 X133.139 Y44.039 E4.93581
G1 X133.68 Y46.553 E5.02134
G1 X134.279 Y48.997 E5.10503
G1 X135.008 Y51.639 E5.19619
G1 X135.21 Y52.519 E5.22622
G1 X135.333 Y53.414 E5.25626
G1 X135.371 Y54.046 E5.27732
G1 X135.386 Y54.684 E5.29855
G1 X135.386 Y65.761 E5.66697
G1 X135.375 Y66.509 E5.69185
G1 X135.322 Y67.411 E5.72191
G1 X135.189 Y68.304 E5.75193
G1 X135.005 Y69.085 E5.77862
G1 X134.616 Y70.486 E5.82698
G1 X133.955 Y73.033 E5.9145
G1 X133.382 Y75.536 E5.99991
G1 X132.888 Y78.006 E6.08368
G1 X132.464 Y80.494 E6.16763
G1 X132.108 Y83.007 E6.25205
G1 X131.822 Y85.539 E6.3368
G1 X131.607 Y88.08 E6.42161
G1 X131.468 Y90.563 E6.50433
G1 X131.387 Y94.467 E6.6342
G1 X131.387 Y118.316 E7.42742
G1 X131.424 Y120.922 E7.51411
G1 X131.533 Y123.487 E7.5995
G1 X131.711 Y125.994 E7.68309
G1 X131.962 Y128.535 E7.76802
G1 X132.283 Y131.043 E7.85211
G1 X132.677 Y133.548 E7.93645
G1 X133.139 Y136.035 E8.02059
G1 X133.68 Y138.549 E8.10612
G1 X134.278 Y140.989 E8.18967
G1 X135.01 Y143.645 E8.28131
G1 X135.211 Y144.525 E8.31133
G1 X135.334 Y145.42 E8.34138
G1 X135.372 Y146.045 E8.3622
G1 X135.387 Y146.684 E8.38346
G1 X135.386 Y157.792 E8.75291
G1 X135.376 Y158.494 E8.77627
G1 X135.323 Y159.396 E8.80632
G1 X135.191 Y160.289 E8.83634
G1 X135.008 Y161.068 E8.86296
G1 X134.65 Y162.361 E8.90758
G1 X133.982 Y164.922 E8.99561
G1 X133.413 Y167.393 E9.07995
G1 X132.913 Y169.869 E9.16396
G1 X132.482 Y172.379 E9.24867
G1 X132.121 Y174.9 E9.33337
G1 X131.837 Y177.392 E9.41679
G1 X131.615 Y179.968 E9.50279
G1 X131.472 Y182.459 E9.58577
G1 X131.397 Y185.052 E9.67205
G1 X131.387 Y186.427 E9.71779
G1 X131.386 Y191.772 E9.89556
G1 X131.375 Y192.499 E9.91974
G1 X131.321 Y193.401 E9.9498
G1 X131.188 Y194.294 E9.97983
G1 X130.976 Y195.172 E10.00987
G1 X130.688 Y196.028 E10.03991
G1 X130.325 Y196.855 E10.06995
G1 X129.89 Y197.646 E10.09997
G1 X129.387 Y198.396 E10.13001
G1 X128.82 Y199.099 E10.16005
G1 X128.192 Y199.749 E10.19011
G1 X127.51 Y200.34 E10.22012
G1 X126.778 Y200.869 E10.25016
G1 X126.002 Y201.331 E10.2802
G1 X125.188 Y201.723 E10.31025
G1 X124.343 Y202.041 E10.34028
G1 X123.473 Y202.283 E10.37031
G1 X122.585 Y202.447 E10.40035
G1 X121.464 Y202.541 E10.43776
G1 X120.857 Y202.554 E10.45796
G1 X79.749 Y202.553 E11.82521
G1 X78.76 Y202.535 E11.85811
G1 X78.14 Y202.508 E11.87876
G1 X76.362 Y202.408 E11.93799
G1 X73.833 Y202.337 E12.02213
G1 X71.3 Y202.339 E12.10638
G1 X68.718 Y202.413 E12.19229
G1 X66.631 Y202.522 E12.2618
G1 X65.769 Y202.546 E12.29048
G1 X24.674 Y202.545 E13.65731
G1 X23.976 Y202.536 E13.68053
G1 X23.075 Y202.485 E13.71054
G1 X22.181 Y202.353 E13.7406
G1 X21.303 Y202.144 E13.77062
G1 X20.446 Y201.857 E13.80068
G1 X19.619 Y201.496 E13.83069
G1 X18.826 Y201.063 E13.86074
G1 X18.075 Y200.562 E13.89077
G1 X17.371 Y199.996 E13.92081
G1 X16.72 Y199.37 E13.95085
G1 X16.127 Y198.689 E13.98088
G1 X15.597 Y197.958 E14.01092
G1 X15.133 Y197.183 E14.04096
G1 X14.739 Y196.37 E14.07101
G1 X14.419 Y195.526 E14.10103
G1 X14.175 Y194.656 E14.13108
G1 X14.009 Y193.768 E14.16113
G1 X13.912 Y192.613 E14.19968
G1 X13.899 Y192.004 E14.21994
G1 X13.899 Y187.366 E14.3742
G1 X13.862 Y184.76 E14.46088
G1 X13.753 Y182.194 E14.54631
G1 X13.575 Y179.687 E14.6299
G1 X13.324 Y177.146 E14.71483
G1 X13.003 Y174.639 E14.79889
G1 X12.609 Y172.134 E14.88323
G1 X12.143 Y169.627 E14.96804
G1 X11.615 Y167.165 E15.05179
G1 X11.009 Y164.7 E15.13622
G1 X10.329 Y162.228 E15.22149
G1 X9.54 Y159.654 E15.31103
G1 X9.404 Y159.234 E15.32572
G1 X9.165 Y158.364 E15.35573
G1 X9.003 Y157.475 E15.38578
G1 X8.914 Y156.405 E15.42149
G1 X8.899 Y155.766 E15.44275
G1 X8.9 Y149.13 E15.66347
G1 X8.912 Y148.421 E15.68705
G1 X8.968 Y147.52 E15.71708
G1 X9.102 Y146.627 E15.74711
G1 X9.356 Y145.614 E15.78184
G1 X9.65 Y144.655 E15.81521
G1 X9.968 Y143.666 E15.84976
G1 X10.672 Y141.246 E15.93359
G1 X11.32 Y138.754 E16.01923
G1 X11.885 Y136.303 E16.10288
G1 X12.388 Y133.791 E16.18809
G1 X12.811 Y131.324 E16.27134
G1 X13.171 Y128.8 E16.35614
G1 X13.459 Y126.26 E16.44116
G1 X13.672 Y123.758 E16.52468
G1 X13.817 Y121.197 E16.61
G1 X13.89 Y118.638 E16.69514
G1 X13.899 Y117.321 E16.73895
G1 X13.899 Y95.366 E17.46917
G1 X13.862 Y92.76 E17.55586
G1 X13.753 Y90.194 E17.64128
G1 X13.575 Y87.687 E17.72487
G1 X13.324 Y85.146 E17.8098
G1 X13.003 Y82.639 E17.89386
G1 X12.609 Y80.134 E17.9782
G1 X12.143 Y77.627 E18.06302
G1 X11.615 Y75.165 E18.14676
G1 X11.009 Y72.7 E18.23119
G1 X10.329 Y70.228 E18.31647
G1 X9.54 Y67.654 E18.40601
G1 X9.404 Y67.234 E18.42069
G1 X9.165 Y66.364 E18.4507
G1 X9.003 Y65.475 E18.48076
G1 X8.914 Y64.405 E18.51647
G1 X8.899 Y63.766 E18.53773
G1 X8.9 Y57.13 E18.75844
G1 X8.912 Y56.421 E18.78202
G1 X8.968 Y55.52 E18.81205
G1 X9.102 Y54.627 E18.84208
G1 X9.356 Y53.614 E18.87682
G1 X9.65 Y52.655 E18.91018
G1 X9.968 Y51.666 E18.94473
G1 X10.672 Y49.246 E19.02856
G1 X11.32 Y46.754 E19.1142
G1 X11.885 Y44.303 E19.19786
G1 X12.388 Y41.791 E19.28307
G1 X12.811 Y39.324 E19.36632
G1 X13.171 Y36.8 E19.45112
G1 X13.459 Y34.26 E19.53614
G1 X13.672 Y31.758 E19.61966
G1 X13.817 Y29.197 E19.70497
G1 X13.89 Y26.638 E19.79012
G1 X13.899 Y25.321 E19.83392
G1 X13.9 Y20.876 E19.98176
G1 X13.91 Y20.203 E20.00415
G1 X13.964 Y19.302 E20.03417
G1 X14.096 Y18.409 E20.0642
G1 X14.308 Y17.531 E20.09424
G1 X14.596 Y16.675 E20.12428
G1 X14.959 Y15.848 E20.15432
G1 X15.393 Y15.056 E20.18435
G1 X15.896 Y14.306 E20.21439
G1 X16.464 Y13.603 E20.24445
G0 F6000 X16.176 Y13.325
G1 F1200 X16.803 Y12.675 E20.27449
G1 X17.538 Y12.038 E20.30684
G1 X18.3 Y11.488 E20.33809
G1 X19.076 Y11.026 E20.36813
G1 X19.953 Y10.604 E20.4005
G1 X20.832 Y10.275 E20.43172
G1 X21.736 Y10.025 E20.46291
G1 X22.664 Y9.854 E20.4943
G1 X23.813 Y9.759 E20.53264
G1 X24.42 Y9.746 E20.55284
G1 X65.397 Y9.746 E21.91574
G1 X66.257 Y9.757 E21.94435
G1 X67.168 Y9.793 E21.97467
G1 X68.935 Y9.892 E22.03353
G1 X71.464 Y9.963 E22.11768
G1 X73.976 Y9.961 E22.20123
G1 X76.558 Y9.887 E22.28714
G1 X78.635 Y9.779 E22.35632
G1 X79.517 Y9.754 E22.38566
G1 X120.632 Y9.755 E23.75315
G1 X121.347 Y9.766 E23.77694
G1 X122.284 Y9.822 E23.80816
G1 X123.177 Y9.954 E23.83818
G1 X124.125 Y10.182 E23.87061
G1 X124.981 Y10.47 E23.90065
G1 X125.873 Y10.86 E23.93303
G1 X126.665 Y11.295 E23.96308
G1 X127.445 Y11.815 E23.99426
G1 X128.204 Y12.427 E24.02669
G1 X128.854 Y13.054 E24.05673
G1 X129.492 Y13.789 E24.0891
G1 X130.042 Y14.55 E24.12033
G1 X130.504 Y15.326 E24.15037
G1 X130.927 Y16.203 E24.18275
G1 X131.256 Y17.081 E24.21394
G1 X131.507 Y17.986 E24.24518
G1 X131.678 Y18.913 E24.27653
G1 X131.773 Y20.037 E24.31405
G1 X131.787 Y20.668 E24.33504
G1 X131.787 Y26.32 E24.52302
G1 X131.824 Y28.909 E24.60914
G1 X131.933 Y31.474 E24.69453
G1 X132.109 Y33.959 E24.77739
G1 X132.359 Y36.488 E24.86192
G1 X132.68 Y38.996 E24.94601
G1 X133.07 Y41.479 E25.02961
G1 X133.53 Y43.955 E25.11337
G1 X134.069 Y46.458 E25.19853
G1 X134.665 Y48.891 E25.28185
G1 X135.398 Y51.55 E25.37358
G1 X135.6 Y52.43 E25.40361
G1 X135.732 Y53.39 E25.43584
G1 X135.771 Y54.037 E25.4574
G1 X135.786 Y54.675 E25.47863
G1 X135.786 Y65.767 E25.84755
G1 X135.774 Y66.532 E25.873
G1 X135.718 Y67.47 E25.90425
G1 X135.585 Y68.363 E25.93428
G1 X135.39 Y69.192 E25.9626
G1 X135.001 Y70.593 E26.01096
G1 X134.342 Y73.133 E26.09824
G1 X133.772 Y75.625 E26.18327
G1 X133.28 Y78.084 E26.26667
G1 X132.858 Y80.561 E26.35025
G1 X132.504 Y83.063 E26.43429
G1 X132.221 Y85.573 E26.5183
G1 X132.005 Y88.114 E26.60312
G1 X131.868 Y90.571 E26.68497
G1 X131.787 Y94.475 E26.81485
G1 X131.787 Y118.316 E27.6078
G1 X131.824 Y120.905 E27.69392
G1 X131.933 Y123.47 E27.77931
G1 X132.109 Y125.955 E27.86217
G1 X132.359 Y128.484 E27.94669
G1 X132.68 Y130.992 E28.03079
G1 X133.07 Y133.475 E28.11439
G1 X133.53 Y135.951 E28.19815
G1 X134.069 Y138.454 E28.28331
G1 X134.664 Y140.883 E28.36648
G1 X135.4 Y143.556 E28.4587
G1 X135.601 Y144.436 E28.48872
G1 X135.733 Y145.396 E28.52095
G1 X135.772 Y146.036 E28.54228
G1 X135.787 Y146.684 E28.56383
G1 X135.786 Y157.798 E28.93349
G1 X135.775 Y158.517 E28.9574
G1 X135.719 Y159.454 E28.98862
G1 X135.587 Y160.347 E29.01865
G1 X135.393 Y161.175 E29.04693
G1 X135.035 Y162.468 E29.09156
G1 X134.369 Y165.023 E29.17938
G1 X133.803 Y167.483 E29.26333
G1 X133.305 Y169.948 E29.34698
G1 X132.876 Y172.447 E29.43131
G1 X132.517 Y174.957 E29.51564
G1 X132.236 Y177.426 E29.59829
G1 X132.013 Y180.002 E29.68429
G1 X131.872 Y182.471 E29.76654
G1 X131.797 Y185.064 E29.85282
G1 X131.787 Y186.43 E29.89826
G1 X131.786 Y191.778 E30.07613
G1 X131.774 Y192.523 E30.10091
G1 X131.717 Y193.46 E30.13214
G1 X131.584 Y194.353 E30.16217
G1 X131.365 Y195.266 E30.19339
G1 X131.067 Y196.156 E30.22461
G1 X130.691 Y197.016 E30.25583
G1 X130.222 Y197.869 E30.2882
G1 X129.719 Y198.619 E30.31824
G1 X129.108 Y199.377 E30.35062
G1 X128.48 Y200.027 E30.38068
G1 X127.772 Y200.642 E30.41187
G1 X126.983 Y201.213 E30.44427
G1 X126.207 Y201.675 E30.47431
G1 X125.329 Y202.097 E30.50671
G1 X124.45 Y202.426 E30.53792
G1 X123.546 Y202.676 E30.56912
G1 X122.618 Y202.846 E30.6005
G1 X121.473 Y202.941 E30.63871
G1 X120.866 Y202.954 E30.6589
G1 X79.742 Y202.953 E32.02669
G1 X78.743 Y202.935 E32.05993
G1 X78.118 Y202.907 E32.08074
G1 X76.351 Y202.808 E32.1396
G1 X73.822 Y202.737 E32.22375
G1 X71.311 Y202.739 E32.30726
G1 X68.729 Y202.813 E32.39318
G1 X66.642 Y202.922 E32.46268
G1 X65.769 Y202.946 E32.49173
G1 X24.669 Y202.945 E33.85872
G1 X23.953 Y202.935 E33.88254
G1 X23.017 Y202.881 E33.91372
G1 X22.123 Y202.749 E33.94378
G1 X21.21 Y202.533 E33.97498
G1 X20.286 Y202.224 E34.00739
G1 X19.459 Y201.863 E34.0374
G1 X18.604 Y201.396 E34.0698
G1 X17.824 Y200.874 E34.10102
G1 X17.12 Y200.308 E34.13107
G1 X16.418 Y199.633 E34.16346
G1 X15.825 Y198.952 E34.19349
G1 X15.273 Y198.193 E34.2247
G1 X14.773 Y197.357 E34.2571
G1 X14.365 Y196.512 E34.28831
G1 X14.045 Y195.668 E34.31833
G1 X13.782 Y194.73 E34.35074
G1 X13.61 Y193.801 E34.38216
G1 X13.512 Y192.622 E34.42151
G1 X13.499 Y192.013 E34.44177
G1 X13.499 Y187.366 E34.59633
G1 X13.462 Y184.766 E34.68281
G1 X13.353 Y182.211 E34.76787
G1 X13.176 Y179.715 E34.8511
G1 X12.927 Y177.197 E34.93525
G1 X12.606 Y174.69 E35.01932
G1 X12.214 Y172.196 E35.10329
G1 X11.75 Y169.7 E35.18773
G1 X11.224 Y167.249 E35.2711
G1 X10.623 Y164.806 E35.35478
G1 X9.944 Y162.334 E35.44004
G1 X9.159 Y159.777 E35.52901
G1 X9.018 Y159.34 E35.54428
G1 X8.771 Y158.436 E35.57545
G1 X8.609 Y157.547 E35.60551
G1 X8.514 Y156.414 E35.64332
G1 X8.499 Y155.766 E35.66488
G1 X8.5 Y149.123 E35.88583
G1 X8.513 Y148.396 E35.91001
G1 X8.572 Y147.461 E35.94117
G1 X8.706 Y146.568 E35.9712
G1 X8.974 Y145.497 E36.00792
G1 X9.269 Y144.533 E36.04146
G1 X9.587 Y143.544 E36.07601
G1 X10.288 Y141.134 E36.15949
G1 X10.933 Y138.653 E36.24475
G1 X11.495 Y136.213 E36.32803
G1 X11.996 Y133.712 E36.41286
G1 X12.417 Y131.256 E36.49574
G1 X12.775 Y128.744 E36.58014
G1 X13.06 Y126.226 E36.66442
G1 X13.274 Y123.724 E36.74794
G1 X13.417 Y121.186 E36.83249
G1 X13.49 Y118.627 E36.91764
G1 X13.499 Y117.318 E36.96117
G1 X13.499 Y95.366 E37.6913
G1 X13.462 Y92.766 E37.77779
G1 X13.353 Y90.211 E37.86284
G1 X13.176 Y87.715 E37.94607
G1 X12.927 Y85.197 E38.03023
G1 X12.606 Y82.69 E38.11429
G1 X12.214 Y80.196 E38.19826
G1 X11.75 Y77.7 E38.2827
G1 X11.224 Y75.249 E38.36608
G1 X10.623 Y72.806 E38.44975
G1 X9.944 Y70.334 E38.53502
G1 X9.159 Y67.777 E38.62398
G1 X9.018 Y67.34 E38.63925
G1 X8.771 Y66.436 E38.67042
G1 X8.609 Y65.547 E38.70048
G1 X8.514 Y64.414 E38.73829
G1 X8.499 Y63.766 E38.75985
G1 X8.5 Y57.123 E38.9808
G1 X8.513 Y56.396 E39.00498
G1 X8.572 Y55.461 E39.03614
G1 X8.706 Y54.568 E39.06618
G1 X8.974 Y53.497 E39.1029
G1 X9.269 Y52.533 E39.13643
G1 X9.587 Y51.544 E39.17098
G1 X10.288 Y49.134 E39.25446
G1 X10.933 Y46.653 E39.33972
G1 X11.495 Y44.213 E39.423
G1 X11.996 Y41.712 E39.50784
G1 X12.417 Y39.256 E39.59071
G1 X12.775 Y36.744 E39.67511
G1 X13.06 Y34.226 E39.75939
G1 X13.274 Y31.724 E39.84291
G1 X13.417 Y29.186 E39.92746
G1 X13.49 Y26.627 E40.01261
G1 X13.499 Y25.318 E40.05615
G1 X13.5 Y20.87 E40.20409
G1 X13.511 Y20.179 E40.22707
G1 X13.568 Y19.244 E40.25823
G1 X13.707 Y18.315 E40.28947
G1 X13.919 Y17.437 E40.31951
G1 X14.217 Y16.547 E40.35073
G1 X14.608 Y15.656 E40.38309
G1 X15.061 Y14.833 E40.41434
G1 X15.564 Y14.083 E40.44437
G1 X16.176 Y13.325 E40.47678
G0 F6000 X15.888 Y13.047
G1 F1200 X16.515 Y12.397 E40.50682
G1 X17.304 Y11.714 E40.54152
G1 X18.095 Y11.144 E40.57395
G1 X18.871 Y10.682 E40.60399
G1 X19.813 Y10.229 E40.63876
G1 X20.725 Y9.889 E40.67113
G1 X21.629 Y9.639 E40.70232
G1 X22.631 Y9.455 E40.73621
G1 X23.804 Y9.359 E40.77535
G1 X24.411 Y9.346 E40.79555
G1 X65.402 Y9.346 E42.15891
G1 X66.273 Y9.357 E42.18788
G1 X67.19 Y9.394 E42.21841
G1 X68.946 Y9.492 E42.2769
G1 X71.475 Y9.563 E42.36105
G1 X73.965 Y9.561 E42.44387
G1 X76.547 Y9.487 E42.52978
G1 X78.614 Y9.38 E42.59862
G1 X79.517 Y9.354 E42.62867
G1 X120.638 Y9.355 E43.99636
G1 X121.371 Y9.367 E44.02074
G1 X122.342 Y9.426 E44.0531
G1 X123.271 Y9.565 E44.08434
G1 X124.219 Y9.793 E44.11677
G1 X125.141 Y10.103 E44.14912
G1 X126.066 Y10.509 E44.18272
G1 X126.858 Y10.944 E44.21278
G1 X127.667 Y11.482 E44.24509
G1 X128.482 Y12.139 E44.27991
G1 X129.132 Y12.766 E44.30995
G1 X129.794 Y13.527 E44.34349
G1 X130.386 Y14.345 E44.37708
G1 X130.848 Y15.121 E44.40712
G1 X131.302 Y16.063 E44.4419
G1 X131.631 Y16.941 E44.47308
G1 X131.9 Y17.913 E44.50662
G1 X132.077 Y18.879 E44.53929
G1 X132.172 Y20.003 E44.57681
G1 X132.187 Y20.659 E44.59863
G1 X132.187 Y26.32 E44.78692
G1 X132.224 Y28.892 E44.87247
G1 X132.333 Y31.457 E44.95786
G1 X132.507 Y33.92 E45.03998
G1 X132.756 Y36.437 E45.12411
G1 X133.077 Y38.945 E45.20821
G1 X133.463 Y41.406 E45.29106
G1 X133.921 Y43.871 E45.37445
G1 X134.458 Y46.363 E45.45924
G1 X135.051 Y48.785 E45.54217
G1 X135.788 Y51.461 E45.63449
G1 X135.99 Y52.341 E45.66452
