;FLAVOR:Marlin
;TIME:2196
;Filament used: 1.45332m
;Layer height: 0.2
;MINX:19.984
;MINY:22.856
;MINZ:0.2
;MAXX:60.994
;MAXY:80.717
;MAXZ:20
;Generated with Cura_SteamEngine 5.3.0
M140 S60
M105
M190 S60
M104 S230
M105
M109 S230
M82 ;absolute extrusion mode
M201 X500.00 Y500.00 Z100.00 E5000.00 ;Setup machine max acceleration
M203 X500.00 Y500.00 Z10.00 E50.00 ;Setup machine max feedrate
M204 P500.00 R1000.00 T500.00 ;Setup Print/Retract/Travel acceleration
M205 X8.00 Y8.00 Z0.40 E5.00 ;Setup Jerk
M220 S100 ;Reset Feedrate
M221 S100 ;Reset Flowrate

G28 ;Home
G29 ;Auto bed Level
M420 S1 ;Save and use mesh

G92 E0 ;Reset Extruder
G1 Z2.0 F3000 ;Move Z Axis up
G1 X10.1 Y20 Z0.28 F5000.0 ;Move to start position
G1 X10.1 Y200.0 Z0.28 F1500.0 E15 ;Draw the first line
G1 X10.4 Y200.0 Z0.28 F5000.0 ;Move to side a little
G1 X10.4 Y20 Z0.28 F1500.0 E30 ;Draw the second line
G92 E0 ;Reset Extruder
G1 Z2.0 F3000 ;Move Z Axis up

G92 E0
G92 E0
G1 F2700 E-5
;LAYER_COUNT:100
;LAYER:0
M107
G0 F6000 X25.466 Y29.561 Z0.2
;TYPE:SKIRT
G1 F2700 E0.09562
G1 F1200 X25.872 Y29.22 E0.11326
G1 X26.89 Y28.468 E0.15535
G1 X27.449 Y28.112 E0.1774
G1 X27.775 Y27.915 E0.19006
G1 X28.939 Y27.31 E0.2337
G1 X31.484 Y26.189 E0.32619
G1 X32.573 Y25.668 E0.36634
G1 X32.746 Y25.594 E0.3726
G1 X33.678 Y25.158 E0.40682
G1 X34.104 Y24.97 E0.42231
G1 X34.836 Y24.676 E0.44855
G1 X35.374 Y24.486 E0.46752
G1 X36.105 Y24.261 E0.49296
G1 X36.398 Y24.181 E0.50307
G1 X37.161 Y24.001 E0.52914
G1 X37.668 Y23.903 E0.54631
G1 X38.01 Y23.846 E0.55785
G1 X38.544 Y23.771 E0.57578
G1 X39.306 Y23.698 E0.60124
G1 X39.652 Y23.676 E0.61277
G1 X40.184 Y23.656 E0.63048
G1 X40.968 Y23.66 E0.65656
G1 X41.297 Y23.673 E0.66751
G1 X42.112 Y23.734 E0.69469
G1 X42.634 Y23.795 E0.71217
G1 X43.455 Y23.925 E0.73982
G1 X43.752 Y23.983 E0.74988
G1 X44.295 Y24.105 E0.76839
G1 X45.026 Y24.3 E0.79356
G1 X45.782 Y24.539 E0.81993
G1 X46.051 Y24.634 E0.82942
G1 X46.606 Y24.849 E0.84921
G1 X47.324 Y25.162 E0.87526
G1 X48.848 Y25.88 E0.9313
G1 X49.55 Y26.219 E0.95722
G1 X52.547 Y27.562 E1.06646
G1 X53.354 Y27.968 E1.0965
G1 X54.122 Y28.443 E1.12654
G1 X54.97 Y29.089 E1.16199
G1 X55.534 Y29.567 E1.18658
G1 X56.196 Y30.181 E1.21661
G1 X56.714 Y30.746 E1.24211
G1 X57.125 Y31.23 E1.26323
G1 X57.509 Y31.705 E1.28354
G1 X58.039 Y32.437 E1.3136
G1 X58.502 Y33.212 E1.34363
G1 X58.904 Y34.049 E1.37451
G1 X59.214 Y34.777 E1.40083
G1 X59.53 Y35.623 E1.43086
G1 X59.757 Y36.433 E1.45884
G1 X59.885 Y36.976 E1.4774
G1 X60.053 Y37.863 E1.50742
G1 X60.127 Y38.531 E1.52978
G1 X60.174 Y39.263 E1.55417
G1 X60.194 Y39.844 E1.57351
G1 X60.185 Y40.747 E1.60354
G1 X60.096 Y41.646 E1.63359
G1 X59.953 Y42.426 E1.65997
G1 X59.808 Y43.054 E1.6814
G1 X59.718 Y43.407 E1.69352
G1 X59.56 Y43.959 E1.71262
G1 X59.026 Y45.628 E1.7709
G1 X58.285 Y48.099 E1.8567
G1 X57.634 Y50.52 E1.94009
G1 X57.038 Y53.015 E2.0254
G1 X56.512 Y55.53 E2.11086
G1 X56.072 Y57.971 E2.19336
G1 X55.689 Y60.512 E2.27883
G1 X55.524 Y61.818 E2.32261
G1 X55.41 Y62.631 E2.34992
G1 X55.323 Y63.153 E2.36752
G1 X55.158 Y63.943 E2.39436
G1 X55.083 Y64.25 E2.40487
G1 X54.933 Y64.794 E2.42364
G1 X54.713 Y65.485 E2.44776
G1 X54.606 Y65.788 E2.45845
G1 X54.395 Y66.336 E2.47798
G1 X54.074 Y67.071 E2.50465
G1 X53.666 Y67.927 E2.53619
G1 X52.556 Y70.341 E2.62456
G1 X51.924 Y71.8 E2.67745
G1 X51.529 Y72.612 E2.70748
G1 X51.278 Y73.048 E2.72421
G1 X50.906 Y73.642 E2.74753
G1 X50.577 Y74.133 E2.76718
G1 X50.041 Y74.86 E2.79722
G1 X49.335 Y75.648 E2.83241
G1 X48.96 Y76.025 E2.8501
G1 X48.295 Y76.637 E2.88016
G1 X47.932 Y76.928 E2.89563
G1 X47.386 Y77.339 E2.91836
G1 X47.052 Y77.577 E2.932
G1 X46.294 Y78.068 E2.96204
G1 X45.393 Y78.538 E2.99584
G1 X44.768 Y78.82 E3.01865
G1 X44.323 Y79.008 E3.03471
G1 X43.476 Y79.322 E3.06476
G1 X42.605 Y79.56 E3.09479
G1 X41.963 Y79.684 E3.11654
G1 X41.287 Y79.786 E3.13928
G1 X40.786 Y79.848 E3.15607
G1 X39.885 Y79.919 E3.18613
G1 X39.088 Y79.915 E3.21264
G1 X38.607 Y79.894 E3.22865
G1 X37.707 Y79.815 E3.2587
G1 X37.193 Y79.733 E3.27601
G1 X36.729 Y79.647 E3.29171
G1 X36.077 Y79.508 E3.31388
G1 X35.206 Y79.271 E3.3439
G1 X34.476 Y79.006 E3.36973
G1 X33.796 Y78.718 E3.39429
G1 X33.248 Y78.465 E3.41437
G1 X32.445 Y78.05 E3.44443
G1 X31.683 Y77.566 E3.47446
G1 X31.072 Y77.105 E3.49992
G1 X30.707 Y76.807 E3.51559
G1 X30.161 Y76.335 E3.53959
G1 X29.511 Y75.708 E3.56963
G1 X29.077 Y75.22 E3.59135
G1 X28.746 Y74.823 E3.60854
G1 X28.054 Y73.89 E3.64718
G1 X27.709 Y73.352 E3.66844
G1 X27.508 Y73.021 E3.68132
G1 X27.073 Y72.229 E3.71137
G1 X26.851 Y71.745 E3.72908
G1 X26.709 Y71.414 E3.74106
G1 X25.333 Y68.36 E3.85247
G1 X24.75 Y67.128 E3.8978
G1 X24.519 Y66.612 E3.91661
G1 X24.231 Y65.894 E3.94234
G1 X24.018 Y65.282 E3.96389
G1 X23.792 Y64.533 E3.98991
G1 X23.719 Y64.26 E3.99931
G1 X23.553 Y63.549 E4.02359
G1 X23.453 Y63.031 E4.04114
G1 X23.401 Y62.717 E4.05173
G1 X23.327 Y62.181 E4.06972
G1 X23.252 Y61.402 E4.09575
G1 X23.21 Y60.627 E4.12157
G1 X23.15 Y58.44 E4.19433
G1 X23.009 Y55.867 E4.28004
G1 X22.8 Y53.352 E4.36398
G1 X22.517 Y50.816 E4.44885
G1 X22.166 Y48.316 E4.53282
G1 X21.738 Y45.787 E4.61813
G1 X21.076 Y42.503 E4.72955
G1 X20.964 Y41.917 E4.74939
G1 X20.834 Y41.023 E4.77944
G1 X20.784 Y40.121 E4.80949
G1 X20.821 Y39.127 E4.84257
G1 X20.897 Y38.309 E4.86989
G1 X20.968 Y37.718 E4.88969
G1 X21.115 Y36.827 E4.91973
G1 X21.341 Y35.953 E4.94975
G1 X21.719 Y34.919 E4.98637
G1 X22.092 Y34.06 E5.01752
G1 X22.285 Y33.646 E5.03271
G1 X22.703 Y32.845 E5.06276
G1 X23.189 Y32.085 E5.09277
G1 X23.756 Y31.353 E5.12356
G1 X24.252 Y30.769 E5.14905
G1 X24.866 Y30.107 E5.17908
G1 X25.466 Y29.561 E5.20606
G0 F6000 X25.209 Y29.255
G1 F1200 X25.634 Y28.898 E5.22452
G1 X26.652 Y28.146 E5.26661
G1 X27.242 Y27.77 E5.28988
G1 X27.591 Y27.56 E5.30343
G1 X28.778 Y26.944 E5.34791
G1 X31.311 Y25.828 E5.43997
G1 X32.416 Y25.3 E5.48071
G1 X32.589 Y25.226 E5.48696
G1 X33.509 Y24.796 E5.52074
G1 X33.955 Y24.599 E5.53696
G1 X34.703 Y24.299 E5.56376
G1 X35.256 Y24.104 E5.58327
G1 X36 Y23.875 E5.60916
G1 X36.306 Y23.792 E5.6197
G1 X37.085 Y23.608 E5.64632
G1 X37.602 Y23.508 E5.66384
G1 X37.954 Y23.45 E5.6757
G1 X38.506 Y23.373 E5.69424
G1 X39.281 Y23.299 E5.72013
G1 X39.637 Y23.276 E5.732
G1 X40.186 Y23.256 E5.75027
G1 X40.984 Y23.26 E5.77681
G1 X41.327 Y23.274 E5.78823
G1 X42.158 Y23.337 E5.81595
G1 X42.697 Y23.4 E5.834
G1 X43.532 Y23.532 E5.86212
G1 X43.84 Y23.593 E5.87256
G1 X44.398 Y23.719 E5.89159
G1 X45.147 Y23.919 E5.91737
G1 X45.915 Y24.162 E5.94416
G1 X46.195 Y24.261 E5.95404
G1 X46.766 Y24.482 E5.9744
G1 X47.494 Y24.8 E6.00083
G1 X49.714 Y25.854 E6.08256
G1 X52.727 Y27.205 E6.19239
G1 X53.534 Y27.611 E6.22244
G1 X54.364 Y28.125 E6.25491
G1 X55.229 Y28.784 E6.29108
G1 X55.806 Y29.274 E6.31625
G1 X56.491 Y29.911 E6.34736
G1 X57.019 Y30.487 E6.37335
G1 X57.436 Y30.979 E6.3948
G1 X57.833 Y31.47 E6.41581
G1 X58.363 Y32.202 E6.44586
G1 X58.863 Y33.039 E6.47829
G1 X59.272 Y33.892 E6.50976
G1 X59.589 Y34.637 E6.53668
G1 X59.905 Y35.483 E6.56672
G1 X60.146 Y36.341 E6.59636
G1 X60.278 Y36.902 E6.61553
G1 X60.451 Y37.819 E6.64657
G1 X60.526 Y38.505 E6.66952
G1 X60.574 Y39.249 E6.69432
G1 X60.594 Y39.848 E6.71425
G1 X60.585 Y40.751 E6.74429
G1 X60.494 Y41.685 E6.7755
G1 X60.343 Y42.516 E6.80359
G1 X60.196 Y43.153 E6.82533
G1 X60.103 Y43.517 E6.83783
G1 X59.941 Y44.081 E6.85735
G1 X59.407 Y45.75 E6.91563
G1 X58.668 Y48.214 E7.00119
G1 X58.02 Y50.624 E7.08419
G1 X57.43 Y53.097 E7.16875
G1 X56.904 Y55.612 E7.25421
G1 X56.466 Y58.042 E7.33634
G1 X56.085 Y60.572 E7.42144
G1 X55.92 Y61.874 E7.46509
G1 X55.805 Y62.697 E7.49273
G1 X55.715 Y63.235 E7.51087
G1 X55.547 Y64.038 E7.53815
G1 X55.469 Y64.356 E7.54904
G1 X55.314 Y64.915 E7.56834
G1 X55.09 Y65.618 E7.59288
G1 X54.979 Y65.932 E7.60396
G1 X54.762 Y66.496 E7.62405
G1 X54.435 Y67.243 E7.65118
G1 X54.027 Y68.099 E7.68272
G1 X52.923 Y70.5 E7.77061
G1 X52.284 Y71.975 E7.82408
G1 X51.876 Y72.812 E7.85505
G1 X51.617 Y73.26 E7.87226
G1 X51.238 Y73.865 E7.896
G1 X50.899 Y74.37 E7.91623
G1 X50.339 Y75.127 E7.94755
G1 X49.619 Y75.93 E7.98342
G1 X49.231 Y76.319 E8.0017
G1 X48.545 Y76.949 E8.03267
G1 X48.173 Y77.248 E8.04855
G1 X47.618 Y77.665 E8.07164
G1 X47.269 Y77.913 E8.08588
G1 X46.479 Y78.423 E8.11715
G1 X45.558 Y78.903 E8.1517
G1 X44.924 Y79.188 E8.17481
G1 X44.462 Y79.383 E8.19149
G1 X43.581 Y79.708 E8.22273
G1 X42.681 Y79.953 E8.25375
G1 X42.023 Y80.08 E8.27604
G1 X41.336 Y80.183 E8.29914
G1 X40.817 Y80.247 E8.31654
G1 X39.916 Y80.318 E8.3466
G1 X39.071 Y80.315 E8.3747
G1 X38.59 Y80.294 E8.39072
G1 X37.644 Y80.21 E8.4223
G1 X37.12 Y80.126 E8.43995
G1 X36.646 Y80.038 E8.45599
G1 X35.972 Y79.894 E8.47891
G1 X35.101 Y79.657 E8.50893
G1 X34.32 Y79.374 E8.53656
G1 X33.628 Y79.081 E8.56156
G1 X33.064 Y78.82 E8.58223
G1 X32.231 Y78.388 E8.61344
G1 X31.469 Y77.904 E8.64346
G1 X30.819 Y77.415 E8.67052
G1 X30.445 Y77.11 E8.68657
G1 X29.883 Y76.623 E8.7113
G1 X29.212 Y75.974 E8.74235
G1 X28.77 Y75.476 E8.7645
G1 X28.425 Y75.061 E8.78245
G1 X27.717 Y74.106 E8.82199
G1 X27.367 Y73.56 E8.84356
G1 X27.157 Y73.214 E8.85702
G1 X26.722 Y72.422 E8.88707
G1 X26.483 Y71.903 E8.90608
G1 X26.341 Y71.572 E8.91806
G1 X24.968 Y68.524 E9.02924
G1 X24.385 Y67.291 E9.07461
G1 X24.148 Y66.761 E9.09392
G1 X23.853 Y66.025 E9.12029
G1 X23.635 Y65.398 E9.14237
G1 X23.406 Y64.636 E9.16883
G1 X23.329 Y64.351 E9.17865
G1 X23.16 Y63.625 E9.20344
G1 X23.058 Y63.096 E9.22136
G1 X23.005 Y62.772 E9.23228
G1 X22.929 Y62.219 E9.25085
G1 X22.853 Y61.424 E9.27741
G1 X22.81 Y60.638 E9.30359
G1 X22.75 Y58.451 E9.37636
G1 X22.61 Y55.9 E9.46133
G1 X22.401 Y53.385 E9.54527
G1 X22.119 Y50.86 E9.62977
G1 X21.77 Y48.372 E9.71334
G1 X21.344 Y45.854 E9.79828
G1 X20.683 Y42.578 E9.90943
G1 X20.568 Y41.975 E9.92985
G1 X20.438 Y41.081 E9.9599
G1 X20.384 Y40.106 E9.99237
G1 X20.421 Y39.112 E10.02546
G1 X20.5 Y38.261 E10.05388
G1 X20.573 Y37.653 E10.07425
G1 X20.72 Y36.762 E10.10429
G1 X20.965 Y35.816 E10.13679
G1 X21.352 Y34.76 E10.1742
G1 X21.729 Y33.891 E10.2057
G1 X21.93 Y33.461 E10.22149
G1 X22.348 Y32.66 E10.25154
G1 X22.873 Y31.84 E10.28392
G1 X23.451 Y31.094 E10.31531
G1 X23.959 Y30.497 E10.34138
G1 X24.597 Y29.811 E10.37254
G1 X25.209 Y29.255 E10.40004
G0 F6000 X24.952 Y28.949
G1 F1200 X25.396 Y28.576 E10.41933
G1 X26.414 Y27.824 E10.46143
G1 X27.036 Y27.427 E10.48597
G1 X27.407 Y27.205 E10.50035
G1 X28.617 Y26.578 E10.54568
G1 X31.143 Y25.465 E10.63748
G1 X32.259 Y24.932 E10.67862
G1 X32.432 Y24.858 E10.68488
G1 X33.34 Y24.434 E10.71821
G1 X33.806 Y24.228 E10.73515
G1 X34.57 Y23.922 E10.76253
G1 X35.138 Y23.722 E10.78256
G1 X35.895 Y23.489 E10.8089
G1 X36.214 Y23.403 E10.81989
G1 X37.009 Y23.215 E10.84706
G1 X37.537 Y23.113 E10.86495
G1 X37.899 Y23.054 E10.87714
G1 X38.468 Y22.975 E10.89625
G1 X39.255 Y22.9 E10.92255
G1 X39.622 Y22.876 E10.93478
G1 X40.188 Y22.856 E10.95361
G1 X41 Y22.86 E10.98062
G1 X41.357 Y22.875 E10.99251
G1 X42.204 Y22.94 E11.02076
G1 X42.759 Y23.005 E11.03935
G1 X43.61 Y23.14 E11.068
G1 X43.928 Y23.203 E11.07879
G1 X44.501 Y23.333 E11.09833
G1 X45.268 Y23.538 E11.12474
G1 X46.048 Y23.785 E11.15195
G1 X46.339 Y23.888 E11.16221
G1 X46.926 Y24.115 E11.18315
G1 X47.666 Y24.439 E11.21002
G1 X49.878 Y25.489 E11.29146
G1 X52.907 Y26.848 E11.40188
G1 X53.745 Y27.271 E11.4331
G1 X54.575 Y27.785 E11.46557
G1 X55.488 Y28.479 E11.50371
G1 X56.078 Y28.981 E11.52948
G1 X56.786 Y29.641 E11.56167
G1 X57.324 Y30.228 E11.58815
G1 X57.747 Y30.728 E11.60994
G1 X58.157 Y31.235 E11.63162
G1 X58.687 Y31.967 E11.66168
G1 X59.224 Y32.866 E11.69651
G1 X59.64 Y33.735 E11.72855
G1 X59.964 Y34.497 E11.75609
G1 X60.28 Y35.343 E11.78613
G1 X60.535 Y36.249 E11.81744
G1 X60.671 Y36.828 E11.83722
G1 X60.849 Y37.776 E11.8693
G1 X60.925 Y38.479 E11.89282
G1 X60.974 Y39.236 E11.91805
G1 X60.994 Y39.852 E11.93855
G1 X60.985 Y40.755 E11.96858
G1 X60.888 Y41.757 E12.00206
G1 X60.733 Y42.606 E12.03077
G1 X60.584 Y43.252 E12.05282
G1 X60.491 Y43.616 E12.06532
G1 X60.322 Y44.203 E12.08563
G1 X59.788 Y45.872 E12.14392
G1 X59.051 Y48.329 E12.22923
G1 X58.406 Y50.728 E12.31186
G1 X57.822 Y53.179 E12.39566
G1 X57.296 Y55.694 E12.48112
G1 X56.86 Y58.113 E12.56287
G1 X56.481 Y60.632 E12.6476
G1 X56.316 Y61.929 E12.69108
G1 X56.2 Y62.763 E12.71909
G1 X56.107 Y63.317 E12.73777
G1 X55.939 Y64.12 E12.76506
G1 X55.854 Y64.463 E12.77681
G1 X55.695 Y65.036 E12.79659
G1 X55.467 Y65.751 E12.82155
G1 X55.352 Y66.076 E12.83302
G1 X55.128 Y66.656 E12.8537
G1 X54.796 Y67.415 E12.88125
G1 X54.388 Y68.271 E12.91279
G1 X53.29 Y70.659 E13.00021
G1 X52.644 Y72.15 E13.05425
G1 X52.236 Y72.987 E13.08522
G1 X51.956 Y73.472 E13.10385
G1 X51.57 Y74.088 E13.12803
G1 X51.221 Y74.608 E13.14886
G1 X50.661 Y75.365 E13.18018
G1 X49.917 Y76.197 E13.2173
G1 X49.502 Y76.614 E13.23687
G1 X48.796 Y77.261 E13.26872
G1 X48.413 Y77.568 E13.28504
G1 X47.85 Y77.991 E13.30847
G1 X47.486 Y78.249 E13.32331
G1 X46.664 Y78.778 E13.35582
G1 X45.722 Y79.268 E13.39113
G1 X45.08 Y79.557 E13.41455
G1 X44.618 Y79.752 E13.43123
G1 X43.686 Y80.094 E13.46425
G1 X42.757 Y80.346 E13.49626
G1 X42.082 Y80.476 E13.51913
G1 X41.385 Y80.58 E13.54257
G1 X40.848 Y80.646 E13.56056
G1 X39.947 Y80.717 E13.59062
G1 X39.054 Y80.715 E13.62032
G1 X38.573 Y80.694 E13.63634
G1 X37.581 Y80.605 E13.66946
G1 X37.047 Y80.519 E13.68745
G1 X36.562 Y80.429 E13.70386
G1 X35.867 Y80.28 E13.7275
G1 X34.996 Y80.043 E13.75752
G1 X34.164 Y79.742 E13.78695
G1 X33.46 Y79.444 E13.81238
G1 X32.88 Y79.175 E13.83364
G1 X32.017 Y78.726 E13.866
G1 X31.229 Y78.224 E13.89707
G1 X30.566 Y77.725 E13.92467
G1 X30.183 Y77.412 E13.94112
G1 X29.605 Y76.911 E13.96657
G1 X28.913 Y76.24 E13.99862
G1 X28.462 Y75.732 E14.02122
G1 X28.117 Y75.317 E14.03917
G1 X27.38 Y74.322 E14.08035
G1 X27.025 Y73.768 E14.10224
G1 X26.806 Y73.407 E14.11628
G1 X26.371 Y72.615 E14.14633
G1 X26.115 Y72.061 E14.16663
G1 X25.973 Y71.73 E14.17861
G1 X24.603 Y68.688 E14.28958
G1 X24.02 Y67.454 E14.33497
G1 X23.777 Y66.91 E14.35479
G1 X23.475 Y66.156 E14.3818
G1 X23.252 Y65.513 E14.40444
G1 X23.02 Y64.74 E14.43128
G1 X22.939 Y64.442 E14.44155
G1 X22.767 Y63.701 E14.46685
G1 X22.663 Y63.161 E14.48514
G1 X22.609 Y62.826 E14.49643
G1 X22.531 Y62.257 E14.51553
G1 X22.454 Y61.446 E14.54263
G1 X22.41 Y60.649 E14.56917
G1 X22.35 Y58.462 E14.64194
G1 X22.211 Y55.933 E14.72618
G1 X22.002 Y53.418 E14.81012
G1 X21.721 Y50.904 E14.89426
G1 X21.374 Y48.428 E14.97741
G1 X20.95 Y45.921 E15.06198
G1 X20.29 Y42.653 E15.17287
G1 X20.172 Y42.033 E15.19386
G1 X20.042 Y41.139 E15.22391
G1 X19.984 Y40.091 E15.25882
G1 X20.021 Y39.097 E15.2919
G1 X20.103 Y38.213 E15.32143
G1 X20.178 Y37.588 E15.34237
G1 X20.325 Y36.697 E15.3724
G1 X20.589 Y35.678 E15.40741
G1 X20.976 Y34.622 E15.44482
G1 X21.367 Y33.722 E15.47746
G1 X21.575 Y33.276 E15.49383
G1 X22.011 Y32.444 E15.52507
G1 X22.536 Y31.624 E15.55745
G1 X23.146 Y30.835 E15.59062
G1 X23.666 Y30.225 E15.61728
G1 X24.328 Y29.515 E15.64957
G1 X24.952 Y28.949 E15.67759
G1 F2700 E10.67759
G0 F6000 X32.168 Y37.499
G1 F2700 E15.77321
G1 F1200 X32.543 Y37.185 E15.78948
G1 X33.123 Y36.824 E15.8122
G1 X33.349 Y36.775 E15.81989
G1 X33.741 Y36.816 E15.833
G1 X33.566 Y37.259 E15.84885
G1 X33.563 Y37.267 E15.84913
G1 X33.437 Y37.629 E15.86188
G1 X33.434 Y37.641 E15.86229
G1 X33.335 Y37.992 E15.87442
G1 X33.332 Y38 E15.8747
G1 X33.249 Y38.355 E15.88683
G1 X33.247 Y38.365 E15.88717
G1 X33.185 Y38.706 E15.8987
G1 X33.183 Y38.718 E15.8991
G1 X33.138 Y39.084 E15.91137
G1 X33.138 Y39.092 E15.91163
G1 X33.109 Y39.462 E15.92398
G1 X33.108 Y39.473 E15.92434
G1 X33.099 Y39.845 E15.93672
G1 X33.099 Y39.855 E15.93705
G1 X33.108 Y40.211 E15.9489
G1 X33.109 Y40.222 E15.94926
G1 X33.138 Y40.592 E15.96161
G1 X33.138 Y40.6 E15.96187
G1 X33.182 Y40.959 E15.9739
G1 X33.184 Y40.971 E15.97431
G1 X33.247 Y41.319 E15.98607
G1 X33.249 Y41.329 E15.98641
G1 X33.332 Y41.684 E15.99854
G1 X33.335 Y41.692 E15.99882
G1 X33.438 Y42.056 E16.0114
G1 X33.441 Y42.067 E16.01178
G1 X33.559 Y42.411 E16.02388
G1 X33.562 Y42.419 E16.02416
G1 X33.735 Y42.858 E16.03986
G1 X33.231 Y42.896 E16.05667
G1 X33.082 Y42.842 E16.06194
G1 X32.561 Y42.516 E16.08238
G1 X32.167 Y42.187 E16.09945
G1 X31.701 Y41.64 E16.12335
G1 X31.352 Y40.858 E16.15183
