;FLAVOR:Marlin
;TIME:1000
;Filament used: 0.957796m
;Layer height: 0.2
;MINX:13.531
;MINY:17.721
;MINZ:0.2
;MAXX:60.491
;MAXY:64.682
;MAXZ:10
;Generated with Cura_SteamEngine 5.3.0
M140 S60
M105
M190 S60
M104 S230
M105
M109 S230
M82 ;absolute extrusion mode
M201 X500.00 Y500.00 Z100.00 E5000.00 ;Setup machine max acceleration
M203 X500.00 Y500.00 Z10.00 E50.00 ;Setup machine max feedrate
M204 P500.00 R1000.00 T500.00 ;Setup Print/Retract/Travel acceleration
M205 X8.00 Y8.00 Z0.40 E5.00 ;Setup Jerk
M220 S100 ;Reset Feedrate
M221 S100 ;Reset Flowrate

G28 ;Home
G29 ;Auto bed Level
M420 S1 ;Save and use mesh

G92 E0 ;Reset Extruder
G1 Z2.0 F3000 ;Move Z Axis up
G1 X10.1 Y20 Z0.28 F5000.0 ;Move to start position
G1 X10.1 Y200.0 Z0.28 F1500.0 E15 ;Draw the first line
G1 X10.4 Y200.0 Z0.28 F5000.0 ;Move to side a little
G1 X10.4 Y20 Z0.28 F1500.0 E30 ;Draw the second line
G92 E0 ;Reset Extruder
G1 Z2.0 F3000 ;Move Z Axis up

G92 E0
G92 E0
G1 F2700 E-5
;LAYER_COUNT:50
;LAYER:0
M107
G0 F6000 X21.709 Y24.46 Z0.2
;TYPE:SKIRT
G1 F2700 E0.09562
G1 F1200 X22.078 Y24.129 E0.11211
G1 X22.406 Y23.848 E0.12648
G1 X23.041 Y23.334 E0.15365
G1 X23.457 Y23.017 E0.17104
G1 X23.81 Y22.76 E0.18557
G1 X24.304 Y22.416 E0.20559
G1 X24.891 Y22.03 E0.22895
G1 X25.268 Y21.798 E0.24368
G1 X25.879 Y21.441 E0.26721
G1 X26.242 Y21.239 E0.28103
G1 X26.848 Y20.925 E0.30373
G1 X27.32 Y20.696 E0.32118
G1 X28.25 Y20.282 E0.35504
G1 X28.671 Y20.109 E0.37018
G1 X29.37 Y19.841 E0.39508
G1 X30.131 Y19.583 E0.4218
G1 X31.014 Y19.322 E0.45243
G1 X31.778 Y19.128 E0.47864
G1 X32.566 Y18.96 E0.50544
G1 X32.983 Y18.88 E0.51956
G1 X33.773 Y18.754 E0.54617
G1 X34.389 Y18.674 E0.56683
G1 X35.143 Y18.598 E0.59204
G1 X35.575 Y18.567 E0.60644
G1 X36.188 Y18.537 E0.62686
G1 X37.075 Y18.521 E0.65636
G1 X37.524 Y18.526 E0.6713
G1 X38.292 Y18.552 E0.69686
G1 X39.118 Y18.613 E0.7244
G1 X40.096 Y18.726 E0.75715
G1 X40.875 Y18.847 E0.78337
G1 X41.83 Y19.033 E0.81573
G1 X42.615 Y19.219 E0.84256
G1 X43.636 Y19.511 E0.87788
G1 X44.235 Y19.703 E0.8988
G1 X44.64 Y19.842 E0.91304
G1 X45.433 Y20.142 E0.94124
G1 X46.158 Y20.442 E0.96734
G1 X46.885 Y20.777 E0.99396
G1 X47.498 Y21.089 E1.01684
G1 X48.255 Y21.503 E1.04554
G1 X48.627 Y21.722 E1.0599
G1 X49.174 Y22.059 E1.08127
G1 X49.523 Y22.284 E1.09508
G1 X50.09 Y22.666 E1.11782
G1 X50.74 Y23.142 E1.14461
G1 X51.292 Y23.581 E1.16807
G1 X51.605 Y23.84 E1.18158
G1 X52.268 Y24.422 E1.21092
G1 X52.738 Y24.86 E1.23229
G1 X53.061 Y25.175 E1.2473
G1 X53.501 Y25.623 E1.26818
G1 X54.027 Y26.201 E1.29418
G1 X54.538 Y26.808 E1.32057
G1 X55.051 Y27.456 E1.34806
G1 X55.305 Y27.797 E1.3622
G1 X55.671 Y28.311 E1.38318
G1 X56.072 Y28.909 E1.40713
G1 X56.625 Y29.815 E1.44244
G1 X57.138 Y30.736 E1.4775
G1 X57.509 Y31.484 E1.50527
G1 X57.826 Y32.196 E1.53119
G1 X58.192 Y33.092 E1.56338
G1 X58.352 Y33.518 E1.57852
G1 X58.581 Y34.174 E1.60163
G1 X58.816 Y34.942 E1.62834
G1 X59.079 Y35.942 E1.66273
G1 X59.254 Y36.734 E1.68971
G1 X59.42 Y37.7 E1.72231
G1 X59.511 Y38.347 E1.74404
G1 X59.592 Y39.068 E1.76817
G1 X59.626 Y39.488 E1.78219
G1 X59.666 Y40.144 E1.80405
G1 X59.683 Y40.56 E1.8179
G1 X59.691 Y41.373 E1.84494
G1 X59.678 Y42.005 E1.86596
G1 X59.658 Y42.459 E1.88108
G1 X59.613 Y43.149 E1.90408
G1 X59.534 Y43.916 E1.92972
G1 X59.431 Y44.643 E1.95414
G1 X59.362 Y45.068 E1.96846
G1 X59.226 Y45.803 E1.99332
G1 X59.048 Y46.589 E2.02013
G1 X58.786 Y47.566 E2.05377
G1 X58.547 Y48.334 E2.08052
G1 X58.32 Y48.974 E2.10311
G1 X57.975 Y49.858 E2.13467
G1 X57.593 Y50.73 E2.16634
G1 X57.253 Y51.435 E2.19237
G1 X57.056 Y51.814 E2.20657
G1 X56.751 Y52.371 E2.2277
G1 X56.542 Y52.733 E2.2416
G1 X56.113 Y53.433 E2.26891
G1 X55.868 Y53.808 E2.2838
G1 X55.61 Y54.184 E2.29897
G1 X55.121 Y54.864 E2.32683
G1 X54.624 Y55.5 E2.35367
G1 X54.182 Y56.022 E2.37642
G1 X53.615 Y56.653 E2.40464
G1 X53.326 Y56.957 E2.41859
G1 X52.908 Y57.378 E2.43832
G1 X52.154 Y58.093 E2.47288
G1 X51.544 Y58.621 E2.49972
G1 X50.95 Y59.095 E2.52499
G1 X50.593 Y59.367 E2.53992
G1 X49.851 Y59.898 E2.57027
G1 X49.384 Y60.211 E2.58897
G1 X49.015 Y60.447 E2.60353
G1 X48.4 Y60.822 E2.62749
G1 X47.712 Y61.206 E2.6537
G1 X47.053 Y61.541 E2.67829
G1 X46.667 Y61.727 E2.69254
G1 X45.905 Y62.067 E2.72029
G1 X45.386 Y62.281 E2.73896
G1 X44.98 Y62.438 E2.75344
G1 X44.173 Y62.723 E2.78191
G1 X43.692 Y62.877 E2.7987
G1 X42.813 Y63.128 E2.82911
G1 X41.873 Y63.355 E2.86127
G1 X41.076 Y63.517 E2.88832
G1 X40.659 Y63.59 E2.9024
G1 X39.816 Y63.709 E2.93072
G1 X38.782 Y63.815 E2.96529
G1 X37.929 Y63.866 E2.99371
G1 X37.068 Y63.882 E3.02235
G1 X36.378 Y63.874 E3.0453
G1 X35.945 Y63.86 E3.05971
G1 X35.317 Y63.826 E3.08063
G1 X34.531 Y63.753 E3.10689
G1 X33.473 Y63.605 E3.14242
G1 X32.825 Y63.493 E3.16429
G1 X32.036 Y63.332 E3.19107
G1 X31.636 Y63.238 E3.20474
G1 X30.765 Y63.007 E3.23471
G1 X30.291 Y62.866 E3.25116
G1 X29.466 Y62.592 E3.28007
G1 X28.499 Y62.225 E3.31447
G1 X28.096 Y62.059 E3.32897
G1 X27.362 Y61.729 E3.35574
G1 X26.842 Y61.477 E3.37496
G1 X26.465 Y61.284 E3.38904
G1 X25.856 Y60.957 E3.41203
G1 X25.165 Y60.551 E3.43869
G1 X24.521 Y60.137 E3.46415
G1 X24.178 Y59.906 E3.47791
G1 X23.514 Y59.431 E3.50506
G1 X22.728 Y58.823 E3.53811
G1 X22.047 Y58.25 E3.56771
G1 X21.417 Y57.674 E3.5961
G1 X21.022 Y57.29 E3.61443
G1 X20.386 Y56.633 E3.64484
G1 X20.086 Y56.304 E3.65965
G1 X19.765 Y55.936 E3.67589
G1 X19.266 Y55.332 E3.70195
G1 X18.984 Y54.968 E3.71726
G1 X18.44 Y54.223 E3.74795
G1 X18.106 Y53.734 E3.76764
G1 X17.875 Y53.379 E3.78173
G1 X17.481 Y52.734 E3.80687
G1 X17.159 Y52.171 E3.82844
G1 X16.958 Y51.802 E3.84242
G1 X16.65 Y51.208 E3.86467
G1 X16.304 Y50.47 E3.89178
G1 X15.998 Y49.743 E3.91801
G1 X15.743 Y49.091 E3.9413
G1 X15.601 Y48.691 E3.95542
G1 X15.397 Y48.078 E3.9769
G1 X15.265 Y47.651 E3.99177
G1 X15.022 Y46.767 E4.02226
G1 X14.835 Y45.965 E4.04965
G1 X14.663 Y45.081 E4.07961
G1 X14.539 Y44.316 E4.10538
G1 X14.44 Y43.486 E4.13318
G1 X14.359 Y42.364 E4.1706
G1 X14.331 Y41.455 E4.20085
G1 X14.339 Y40.477 E4.23338
G1 X14.378 Y39.694 E4.25945
G1 X14.435 Y38.959 E4.28397
G1 X14.535 Y38.117 E4.31217
G1 X14.672 Y37.271 E4.34068
G1 X14.821 Y36.497 E4.36689
G1 X14.913 Y36.09 E4.38077
G1 X15.172 Y35.073 E4.41568
G1 X15.355 Y34.439 E4.43762
G1 X15.61 Y33.672 E4.46451
G1 X15.873 Y32.974 E4.48932
G1 X16.034 Y32.572 E4.50372
G1 X16.23 Y32.112 E4.52035
G1 X16.568 Y31.375 E4.54732
G1 X16.768 Y30.971 E4.56231
G1 X17.161 Y30.219 E4.59053
G1 X17.567 Y29.512 E4.61765
G1 X17.896 Y28.989 E4.6382
G1 X18.127 Y28.638 E4.65218
G1 X18.491 Y28.109 E4.67353
G1 X18.737 Y27.767 E4.68754
G1 X19.231 Y27.12 E4.71462
G1 X19.833 Y26.389 E4.74612
G1 X20.349 Y25.814 E4.77181
G1 X20.772 Y25.369 E4.79223
G1 X21.078 Y25.061 E4.80667
G1 X21.709 Y24.46 E4.83566
G0 F6000 X21.442 Y24.162
G1 F1200 X21.818 Y23.825 E4.85245
G1 X22.154 Y23.537 E4.86717
G1 X22.799 Y23.016 E4.89475
G1 X23.581 Y22.432 E4.92721
G1 X24.084 Y22.082 E4.94759
G1 X24.681 Y21.689 E4.97136
G1 X25.066 Y21.453 E4.98638
G1 X25.684 Y21.091 E5.0102
G1 X26.058 Y20.884 E5.02442
G1 X26.673 Y20.565 E5.04746
G1 X27.157 Y20.331 E5.06534
G1 X28.098 Y19.912 E5.0996
G1 X28.528 Y19.736 E5.11506
G1 X29.242 Y19.462 E5.14049
G1 X30.018 Y19.199 E5.16775
G1 X30.916 Y18.934 E5.19889
G1 X31.695 Y18.737 E5.22561
G1 X32.491 Y18.567 E5.25268
G1 X32.92 Y18.485 E5.26721
G1 X33.721 Y18.357 E5.29419
G1 X34.349 Y18.276 E5.31525
G1 X35.114 Y18.199 E5.34082
G1 X35.555 Y18.167 E5.35553
G1 X36.181 Y18.137 E5.37637
G1 X37.079 Y18.121 E5.40625
G1 X37.538 Y18.126 E5.42151
G1 X38.321 Y18.153 E5.44757
G1 X39.164 Y18.216 E5.47569
G1 X40.157 Y18.331 E5.50894
G1 X40.951 Y18.454 E5.53566
G1 X41.922 Y18.644 E5.56857
G1 X42.725 Y18.834 E5.59601
G1 X43.758 Y19.13 E5.63175
G1 X44.365 Y19.325 E5.65296
G1 X44.782 Y19.468 E5.66762
G1 X45.586 Y19.772 E5.69621
G1 X46.311 Y20.072 E5.72231
G1 X47.066 Y20.421 E5.74997
G1 X47.69 Y20.738 E5.77325
G1 X48.458 Y21.158 E5.80236
G1 X48.837 Y21.381 E5.81699
G1 X49.391 Y21.723 E5.83864
G1 X49.746 Y21.952 E5.8527
G1 X50.326 Y22.343 E5.87596
G1 X50.989 Y22.829 E5.9033
G1 X51.869 Y23.539 E5.94091
G1 X52.541 Y24.129 E5.97065
G1 X53.011 Y24.567 E5.99202
G1 X53.346 Y24.895 E6.00761
G1 X53.797 Y25.354 E6.02902
G1 X54.333 Y25.943 E6.0555
G1 X54.852 Y26.56 E6.08232
G1 X55.372 Y27.217 E6.11019
G1 X55.631 Y27.565 E6.12462
G1 X56.003 Y28.088 E6.14596
G1 X56.413 Y28.701 E6.17049
G1 X56.974 Y29.62 E6.2063
G1 X57.496 Y30.558 E6.24201
G1 X57.874 Y31.321 E6.27033
G1 X58.196 Y32.045 E6.29668
G1 X58.566 Y32.951 E6.32923
G1 X58.73 Y33.386 E6.34469
G1 X58.959 Y34.042 E6.3678
G1 X59.203 Y34.84 E6.39556
G1 X59.47 Y35.856 E6.4305
G1 X59.648 Y36.666 E6.45808
G1 X59.816 Y37.644 E6.49109
G1 X59.908 Y38.302 E6.51318
G1 X59.991 Y39.036 E6.53775
G1 X60.066 Y40.128 E6.57416
G1 X60.083 Y40.556 E6.58841
G1 X60.091 Y41.381 E6.61585
G1 X60.078 Y42.023 E6.6372
G1 X60.057 Y42.485 E6.65259
G1 X60.011 Y43.19 E6.67608
G1 X59.93 Y43.972 E6.70223
G1 X59.826 Y44.707 E6.72692
G1 X59.755 Y45.141 E6.74155
G1 X59.616 Y45.891 E6.76692
G1 X59.434 Y46.693 E6.79427
G1 X59.168 Y47.685 E6.82843
G1 X58.924 Y48.468 E6.85571
G1 X58.693 Y49.119 E6.87868
G1 X58.341 Y50.019 E6.91083
G1 X57.953 Y50.904 E6.94297
G1 X57.608 Y51.619 E6.96937
G1 X57.407 Y52.006 E6.98388
G1 X57.097 Y52.571 E7.00531
G1 X56.883 Y52.942 E7.01956
G1 X56.448 Y53.652 E7.04725
G1 X55.935 Y54.418 E7.07791
G1 X55.446 Y55.098 E7.10577
G1 X54.929 Y55.758 E7.13366
G1 X54.48 Y56.289 E7.15678
G1 X53.905 Y56.929 E7.1854
G1 X53.61 Y57.239 E7.19963
G1 X53.183 Y57.668 E7.21976
G1 X52.416 Y58.395 E7.25491
G1 X51.793 Y58.934 E7.28231
G1 X51.192 Y59.413 E7.30788
G1 X50.826 Y59.692 E7.32318
G1 X50.074 Y60.23 E7.35394
G1 X49.6 Y60.548 E7.37292
G1 X49.223 Y60.789 E7.3878
G1 X48.595 Y61.171 E7.41225
G1 X47.893 Y61.563 E7.43899
G1 X47.227 Y61.901 E7.46383
G1 X46.83 Y62.092 E7.47849
G1 X46.057 Y62.437 E7.50664
G1 X45.53 Y62.654 E7.5256
G1 X45.113 Y62.815 E7.54046
G1 X44.295 Y63.104 E7.56932
G1 X43.802 Y63.262 E7.58654
G1 X42.907 Y63.517 E7.61749
G1 X41.953 Y63.747 E7.65013
G1 X41.145 Y63.911 E7.67755
G1 X40.715 Y63.986 E7.69207
G1 X39.857 Y64.107 E7.72089
G1 X38.806 Y64.214 E7.75603
G1 X37.936 Y64.266 E7.78501
G1 X37.063 Y64.282 E7.81405
G1 X36.365 Y64.274 E7.83727
G1 X35.923 Y64.259 E7.85198
G1 X35.28 Y64.224 E7.8734
G1 X34.476 Y64.149 E7.90026
G1 X33.405 Y63.999 E7.93623
G1 X32.745 Y63.885 E7.9585
G1 X31.944 Y63.721 E7.9857
G1 X31.533 Y63.625 E7.99973
G1 X30.662 Y63.394 E8.02971
G1 X30.165 Y63.246 E8.04695
G1 X29.324 Y62.966 E8.07643
G1 X28.347 Y62.595 E8.11119
G1 X27.932 Y62.424 E8.12612
G1 X27.188 Y62.089 E8.15326
G1 X26.66 Y61.833 E8.17278
G1 X25.653 Y61.302 E8.21064
G1 X24.962 Y60.896 E8.2373
G1 X24.298 Y60.469 E8.26355
G1 X23.945 Y60.231 E8.27771
G1 X23.269 Y59.747 E8.30537
G1 X22.47 Y59.129 E8.33896
G1 X21.777 Y58.545 E8.36911
G1 X21.138 Y57.961 E8.3979
G1 X20.735 Y57.568 E8.41662
G1 X20.09 Y56.903 E8.44743
G1 X19.79 Y56.574 E8.46224
G1 X19.457 Y56.191 E8.47912
G1 X18.95 Y55.577 E8.50561
G1 X18.661 Y55.204 E8.5213
G1 X18.11 Y54.449 E8.55239
G1 X17.771 Y53.952 E8.5724
G1 X17.534 Y53.588 E8.58684
G1 X17.134 Y52.933 E8.61237
G1 X16.808 Y52.362 E8.63424
G1 X16.603 Y51.986 E8.64848
G1 X16.288 Y51.378 E8.67126
G1 X15.935 Y50.625 E8.69892
G1 X15.625 Y49.889 E8.72548
G1 X15.366 Y49.225 E8.74919
G1 X15.221 Y48.817 E8.76359
G1 X15.015 Y48.196 E8.78535
G1 X14.879 Y47.757 E8.80064
G1 X14.632 Y46.858 E8.83164
G1 X14.442 Y46.041 E8.85954
G1 X14.268 Y45.145 E8.8899
G1 X14.142 Y44.363 E8.91625
G1 X14.041 Y43.515 E8.94465
G1 X13.959 Y42.376 E8.98263
G1 X13.931 Y41.452 E9.01338
G1 X13.939 Y40.457 E9.04647
G1 X13.979 Y39.663 E9.07291
G1 X14.038 Y38.912 E9.09797
G1 X14.14 Y38.053 E9.12674
G1 X14.279 Y37.195 E9.15565
G1 X14.431 Y36.409 E9.18228
G1 X14.525 Y35.991 E9.19653
G1 X14.788 Y34.962 E9.23185
G1 X14.975 Y34.313 E9.25432
G1 X15.236 Y33.531 E9.28174
G1 X15.502 Y32.825 E9.30683
G1 X15.666 Y32.415 E9.32152
G1 X15.866 Y31.945 E9.3385
G1 X16.204 Y31.208 E9.36547
G1 X16.413 Y30.786 E9.38113
G1 X16.814 Y30.02 E9.40989
G1 X17.228 Y29.299 E9.43754
G1 X17.797 Y28.411 E9.47262
G1 X18.166 Y27.875 E9.49427
G1 X18.419 Y27.524 E9.50866
G1 X18.922 Y26.866 E9.5362
G1 X19.535 Y26.122 E9.56827
G1 X20.059 Y25.538 E9.59436
G1 X20.488 Y25.087 E9.61507
G1 X20.802 Y24.771 E9.62988
G1 X21.442 Y24.162 E9.65927
G0 F6000 X21.175 Y23.864
G1 F1200 X21.551 Y23.527 E9.67606
G1 X21.903 Y23.226 E9.69146
G1 X22.56 Y22.696 E9.71954
G1 X23.353 Y22.104 E9.75245
G1 X23.864 Y21.748 E9.77317
G1 X24.472 Y21.348 E9.79737
G1 X24.864 Y21.108 E9.81266
G1 X25.49 Y20.741 E9.8368
G1 X25.874 Y20.529 E9.85139
G1 X26.499 Y20.205 E9.8748
G1 X26.994 Y19.966 E9.89308
G1 X27.946 Y19.542 E9.92775
G1 X28.385 Y19.363 E9.94351
G1 X29.114 Y19.083 E9.96949
G1 X29.905 Y18.815 E9.99727
G1 X30.818 Y18.546 E10.02892
G1 X31.611 Y18.346 E10.05612
G1 X32.416 Y18.174 E10.0835
G1 X32.857 Y18.09 E10.09843
G1 X33.67 Y17.96 E10.12582
G1 X34.309 Y17.878 E10.14725
G1 X35.085 Y17.8 E10.17319
G1 X35.536 Y17.767 E10.18823
G1 X36.174 Y17.737 E10.20947
G1 X37.083 Y17.721 E10.23971
G1 X37.552 Y17.726 E10.25531
G1 X38.351 Y17.754 E10.2819
G1 X39.21 Y17.819 E10.31055
G1 X40.218 Y17.936 E10.3443
G1 X41.028 Y18.061 E10.37156
G1 X41.999 Y18.251 E10.40447
G1 X42.835 Y18.449 E10.43304
G1 X43.88 Y18.749 E10.46921
G1 X44.495 Y18.947 E10.49069
G1 X44.923 Y19.094 E10.50575
G1 X45.739 Y19.402 E10.53475
G1 X46.479 Y19.709 E10.5614
G1 X47.247 Y20.064 E10.58954
G1 X47.882 Y20.387 E10.61324
G1 X48.661 Y20.813 E10.64277
G1 X49.047 Y21.041 E10.65768
G1 X49.608 Y21.387 E10.6796
G1 X49.97 Y21.62 E10.69392
G1 X50.562 Y22.02 E10.71768
G1 X51.24 Y22.518 E10.74566
G1 X52.133 Y23.238 E10.78382
G1 X52.814 Y23.836 E10.81396
G1 X53.291 Y24.281 E10.83566
G1 X54.093 Y25.085 E10.87343
G1 X54.639 Y25.686 E10.90043
G1 X55.166 Y26.312 E10.92765
G1 X55.693 Y26.978 E10.9559
G1 X55.957 Y27.333 E10.97061
G1 X56.335 Y27.866 E10.99235
G1 X56.754 Y28.493 E11.01743
G1 X57.324 Y29.425 E11.05376
G1 X57.846 Y30.363 E11.08947
G1 X58.239 Y31.158 E11.11896
G1 X58.566 Y31.894 E11.14575
G1 X58.94 Y32.81 E11.17866
G1 X59.108 Y33.254 E11.19445
G1 X59.342 Y33.925 E11.21808
G1 X59.59 Y34.738 E11.24635
G1 X59.861 Y35.77 E11.28184
G1 X60.042 Y36.598 E11.31003
G1 X60.212 Y37.589 E11.34347
G1 X60.305 Y38.257 E11.36591
G1 X60.39 Y39.009 E11.39108
G1 X60.466 Y40.112 E11.42785
G1 X60.483 Y40.552 E11.44249
G1 X60.491 Y41.389 E11.47033
G1 X60.478 Y42.041 E11.49202
G1 X60.456 Y42.511 E11.50767
G1 X60.409 Y43.231 E11.53167
G1 X60.326 Y44.028 E11.55832
G1 X60.221 Y44.772 E11.58331
G1 X60.148 Y45.214 E11.59822
G1 X60.006 Y45.98 E11.62413
G1 X59.82 Y46.797 E11.652
G1 X59.55 Y47.804 E11.68667
G1 X59.301 Y48.602 E11.71447
G1 X59.066 Y49.265 E11.73787
G1 X58.714 Y50.165 E11.77001
G1 X58.313 Y51.078 E11.80318
G1 X57.963 Y51.803 E11.82996
G1 X57.758 Y52.198 E11.84476
G1 X57.443 Y52.771 E11.86651
G1 X57.224 Y53.151 E11.88109
G1 X56.78 Y53.875 E11.90934
G1 X56.26 Y54.652 E11.94044
G1 X55.761 Y55.345 E11.96884
G1 X55.244 Y56.005 E11.99672
G1 X54.778 Y56.556 E12.02073
G1 X54.195 Y57.205 E12.04974
G1 X53.894 Y57.521 E12.06426
G1 X53.458 Y57.958 E12.08479
G1 X52.678 Y58.697 E12.12053
G1 X52.042 Y59.247 E12.14849
G1 X51.434 Y59.731 E12.17434
G1 X51.059 Y60.017 E12.19003
G1 X50.297 Y60.562 E12.22119
G1 X49.815 Y60.885 E12.24048
G1 X49.431 Y61.131 E12.25565
G1 X48.79 Y61.52 E12.28059
G1 X48.074 Y61.92 E12.30787
G1 X47.4 Y62.261 E12.33299
G1 X46.993 Y62.457 E12.34802
G1 X46.209 Y62.807 E12.37657
G1 X45.674 Y63.027 E12.39581
G1 X45.246 Y63.192 E12.41107
G1 X44.417 Y63.485 E12.44031
G1 X43.912 Y63.647 E12.45795
G1 X43.001 Y63.906 E12.48945
G1 X42.033 Y64.139 E12.52257
G1 X41.214 Y64.305 E12.55036
G1 X40.771 Y64.382 E12.56532
G1 X39.898 Y64.505 E12.59464
G1 X38.83 Y64.613 E12.63034
G1 X37.943 Y64.666 E12.6599
G1 X37.058 Y64.682 E12.68934
G1 X36.351 Y64.674 E12.71286
G1 X35.901 Y64.658 E12.72783
G1 X35.243 Y64.622 E12.74975
G1 X34.421 Y64.545 E12.77721
G1 X33.337 Y64.393 E12.81362
G1 X32.665 Y64.277 E12.8363
G1 X31.853 Y64.111 E12.86386
G1 X31.43 Y64.012 E12.87831
G1 X30.559 Y63.781 E12.90828
G1 X30.039 Y63.626 E12.92633
G1 X29.182 Y63.34 E12.95638
G1 X28.195 Y62.965 E12.9915
G1 X27.768 Y62.789 E13.00686
G1 X27.013 Y62.449 E13.0344
