;FLAVOR:Marlin
;TIME:6166
;Filament used: 5.51566m
;Layer height: 0.2
;MINX:9.593
;MINY:11.454
;MINZ:0.2
;MAXX:79.669
;MAXY:72.49
;MAXZ:27
;Generated with Cura_SteamEngine 5.3.0
M140 S60
M105
M190 S60
M104 S230
M105
M109 S230
M82 ;absolute extrusion mode
M201 X500.00 Y500.00 Z100.00 E5000.00 ;Setup machine max acceleration
M203 X500.00 Y500.00 Z10.00 E50.00 ;Setup machine max feedrate
M204 P500.00 R1000.00 T500.00 ;Setup Print/Retract/Travel acceleration
M205 X8.00 Y8.00 Z0.40 E5.00 ;Setup Jerk
M220 S100 ;Reset Feedrate
M221 S100 ;Reset Flowrate

G28 ;Home
G29 ;Auto bed Level
M420 S1 ;Save and use mesh

G92 E0 ;Reset Extruder
G1 Z2.0 F3000 ;Move Z Axis up
G1 X10.1 Y20 Z0.28 F5000.0 ;Move to start position
G1 X10.1 Y200.0 Z0.28 F1500.0 E15 ;Draw the first line
G1 X10.4 Y200.0 Z0.28 F5000.0 ;Move to side a little
G1 X10.4 Y20 Z0.28 F1500.0 E30 ;Draw the second line
G92 E0 ;Reset Extruder
G1 Z2.0 F3000 ;Move Z Axis up

G92 E0
G92 E0
G1 F2700 E-5
;LAYER_COUNT:135
;LAYER:0
M107
G0 F6000 X13.584 Y15.062 Z0.2
;TYPE:SKIRT
G1 F2700 E0.09562
G1 F1200 X14.266 Y14.47 E0.12566
G1 X14.998 Y13.941 E0.1557
G1 X15.774 Y13.479 E0.18574
G1 X16.588 Y13.087 E0.21579
G1 X17.433 Y12.769 E0.24582
G1 X18.303 Y12.527 E0.27585
G1 X19.191 Y12.362 E0.30589
G1 X20.343 Y12.267 E0.34434
G1 X20.997 Y12.254 E0.36609
G1 X32.671 Y12.257 E0.75437
G1 X33.373 Y12.268 E0.77772
G1 X34.184 Y12.313 E0.80474
G1 X35.585 Y12.447 E0.85155
G1 X36.317 Y12.526 E0.87604
G1 X38.887 Y12.728 E0.96178
G1 X41.427 Y12.857 E1.04637
G1 X43.926 Y12.912 E1.12951
G1 X46.488 Y12.897 E1.21472
G1 X49.029 Y12.809 E1.29928
G1 X51.531 Y12.652 E1.38266
G1 X55.091 Y12.312 E1.50161
G1 X55.748 Y12.271 E1.5235
G1 X56.385 Y12.256 E1.5447
G1 X67.95 Y12.254 E1.92935
G1 X68.802 Y12.265 E1.95769
G1 X69.703 Y12.318 E1.98771
G1 X70.597 Y12.45 E2.01777
G1 X71.475 Y12.661 E2.0478
G1 X72.331 Y12.949 E2.07784
G1 X73.158 Y13.311 E2.10786
G1 X73.95 Y13.745 E2.1379
G1 X74.701 Y14.247 E2.16795
G1 X75.404 Y14.814 E2.19799
G1 X76.054 Y15.441 E2.22802
G1 X76.646 Y16.123 E2.25806
G1 X77.176 Y16.854 E2.28809
G1 X77.639 Y17.63 E2.31815
G1 X78.031 Y18.443 E2.34817
G1 X78.35 Y19.288 E2.37821
G1 X78.593 Y20.158 E2.40825
G1 X78.758 Y21.046 E2.43829
G1 X78.853 Y22.161 E2.47551
G1 X78.867 Y22.8 E2.49677
G1 X78.869 Y60.237 E3.74193
G1 X78.858 Y61.102 E3.7707
G1 X78.806 Y62.004 E3.80075
G1 X78.674 Y62.897 E3.83078
G1 X78.493 Y63.68 E3.85751
G1 X78.234 Y64.545 E3.88754
G1 X77.9 Y65.384 E3.91757
G1 X77.494 Y66.19 E3.94759
G1 X77.017 Y66.957 E3.97763
G1 X76.303 Y67.892 E4.01676
G1 X75.6 Y68.648 E4.0511
G1 X74.928 Y69.252 E4.08115
G1 X74.206 Y69.795 E4.1112
G1 X73.439 Y70.271 E4.14122
G1 X72.777 Y70.617 E4.16606
G1 X71.861 Y71.013 E4.19926
G1 X71.004 Y71.297 E4.22928
G1 X70.125 Y71.504 E4.25932
G1 X69.231 Y71.632 E4.28936
G1 X68.398 Y71.68 E4.31711
G1 X67.785 Y71.69 E4.3375
G1 X21.663 Y71.69 E5.87152
G1 X20.973 Y71.68 E5.89448
G1 X20.072 Y71.627 E5.92449
G1 X18.815 Y71.423 E5.96685
G1 X17.829 Y71.157 E6.00082
G1 X16.981 Y70.845 E6.03087
G1 X16.165 Y70.46 E6.06088
G1 X15.385 Y70.004 E6.09093
G1 X14.692 Y69.522 E6.11901
G1 X13.908 Y68.879 E6.15273
G1 X13.263 Y68.247 E6.18276
G1 X12.677 Y67.56 E6.2128
G1 X12.154 Y66.824 E6.24283
G1 X11.698 Y66.045 E6.27285
G1 X11.288 Y65.169 E6.30502
G1 X11.174 Y64.892 E6.31498
G1 X10.867 Y64.042 E6.34504
G1 X10.637 Y63.169 E6.37507
G1 X10.485 Y62.279 E6.4051
G1 X10.407 Y61.174 E6.44194
G1 X10.396 Y60.491 E6.46466
G1 X10.393 Y22.983 E7.71218
G1 X10.403 Y22.312 E7.7345
G1 X10.457 Y21.41 E7.76456
G1 X10.59 Y20.517 E7.79459
G1 X10.801 Y19.639 E7.82462
G1 X11.089 Y18.783 E7.85466
G1 X11.452 Y17.956 E7.8847
G1 X11.887 Y17.165 E7.91472
G1 X12.39 Y16.415 E7.94476
G1 X12.957 Y15.712 E7.9748
G1 X13.584 Y15.062 E8.00484
G0 F6000 X13.296 Y14.784
G1 F1200 X14.004 Y14.168 E8.03605
G1 X14.793 Y13.597 E8.06844
G1 X15.569 Y13.135 E8.09848
G1 X16.447 Y12.713 E8.13088
G1 X17.326 Y12.384 E8.1621
G1 X18.23 Y12.134 E8.19329
G1 X19.158 Y11.963 E8.22468
G1 X20.31 Y11.868 E8.26312
G1 X20.997 Y11.854 E8.28598
G1 X32.677 Y11.857 E8.67446
G1 X33.395 Y11.869 E8.69834
G1 X34.222 Y11.915 E8.72589
G1 X35.628 Y12.049 E8.77287
G1 X36.358 Y12.128 E8.79729
G1 X38.918 Y12.33 E8.8827
G1 X41.436 Y12.457 E8.96655
G1 X43.933 Y12.512 E9.04962
G1 X46.474 Y12.497 E9.13414
G1 X49.015 Y12.409 E9.2187
G1 X51.499 Y12.253 E9.30148
G1 X55.066 Y11.913 E9.42066
G1 X55.739 Y11.871 E9.44309
G1 X56.385 Y11.856 E9.46458
G1 X67.955 Y11.854 E9.8494
G1 X68.825 Y11.866 E9.87834
G1 X69.761 Y11.922 E9.90953
G1 X70.655 Y12.054 E9.93958
G1 X71.603 Y12.282 E9.97201
G1 X72.459 Y12.57 E10.00205
G1 X73.35 Y12.96 E10.0344
G1 X74.172 Y13.412 E10.0656
G1 X74.923 Y13.914 E10.09565
G1 X75.682 Y14.526 E10.12808
G1 X76.332 Y15.153 E10.15811
G1 X76.97 Y15.888 E10.19048
G1 X77.52 Y16.649 E10.22171
G1 X77.983 Y17.425 E10.25177
G1 X78.391 Y18.269 E10.28295
G1 X78.735 Y19.18 E10.31534
G1 X78.986 Y20.085 E10.34657
G1 X79.157 Y21.012 E10.37793
G1 X79.252 Y22.127 E10.41515
G1 X79.267 Y22.8 E10.43754
G1 X79.269 Y60.242 E11.68286
G1 X79.257 Y61.125 E11.71223
G1 X79.202 Y62.062 E11.74345
G1 X79.064 Y62.987 E11.77456
G1 X78.883 Y63.77 E11.80129
G1 X78.606 Y64.693 E11.83334
G1 X78.272 Y65.532 E11.86337
G1 X77.834 Y66.401 E11.89574
G1 X77.335 Y67.2 E11.92707
G1 X76.621 Y68.135 E11.9662
G1 X75.893 Y68.92 E12.00181
G1 X75.168 Y69.572 E12.03424
G1 X74.417 Y70.135 E12.06546
G1 X73.624 Y70.626 E12.09648
G1 X72.962 Y70.972 E12.12132
G1 X71.987 Y71.393 E12.15665
G1 X71.13 Y71.677 E12.18667
G1 X70.182 Y71.9 E12.21907
G1 X69.288 Y72.028 E12.2491
G1 X68.405 Y72.08 E12.27852
G1 X67.792 Y72.09 E12.29891
G1 X21.657 Y72.09 E13.83337
G1 X20.967 Y72.08 E13.85632
G1 X20.008 Y72.022 E13.88828
G1 X18.751 Y71.818 E13.93063
G1 X17.725 Y71.543 E13.96596
G1 X16.81 Y71.207 E13.99838
G1 X15.994 Y70.822 E14.02839
G1 X15.183 Y70.349 E14.05962
G1 X14.438 Y69.831 E14.0898
G1 X13.628 Y69.165 E14.12468
G1 X12.983 Y68.533 E14.15471
G1 X12.351 Y67.792 E14.1871
G1 X11.828 Y67.056 E14.21713
G1 X11.336 Y66.215 E14.24954
G1 X10.918 Y65.321 E14.28236
G1 X10.798 Y65.028 E14.29289
G1 X10.48 Y64.144 E14.32414
G1 X10.25 Y63.271 E14.35417
G1 X10.086 Y62.307 E14.38669
G1 X10.007 Y61.18 E14.42427
G1 X9.996 Y60.491 E14.44719
G1 X9.993 Y22.977 E15.69491
G1 X10.004 Y22.288 E15.71783
G1 X10.061 Y21.351 E15.74905
G1 X10.194 Y20.458 E15.77908
G1 X10.422 Y19.511 E15.81148
G1 X10.71 Y18.655 E15.84151
G1 X11.086 Y17.795 E15.87273
G1 X11.555 Y16.942 E15.90511
G1 X12.058 Y16.192 E15.93514
G1 X12.669 Y15.434 E15.96753
G1 X13.296 Y14.784 E15.99756
G0 F6000 X13.033 Y14.482
G1 F1200 X13.741 Y13.866 E16.02878
G1 X14.588 Y13.253 E16.06355
G1 X15.364 Y12.791 E16.09359
G1 X16.307 Y12.338 E16.12839
G1 X17.219 Y11.998 E16.16076
G1 X18.123 Y11.748 E16.19195
G1 X19.125 Y11.564 E16.22584
G1 X20.277 Y11.469 E16.26428
G1 X20.997 Y11.454 E16.28824
G1 X32.684 Y11.457 E16.67695
G1 X33.417 Y11.47 E16.70133
G1 X34.26 Y11.517 E16.72941
G1 X35.671 Y11.651 E16.77655
G1 X36.399 Y11.73 E16.80091
G1 X38.949 Y11.932 E16.88599
G1 X41.445 Y12.057 E16.96911
G1 X43.94 Y12.112 E17.05211
G1 X46.46 Y12.097 E17.13593
G1 X49.001 Y12.009 E17.2205
G1 X51.467 Y11.854 E17.30268
G1 X55.041 Y11.514 E17.42209
G1 X55.73 Y11.471 E17.44505
G1 X56.385 Y11.456 E17.46684
G1 X67.961 Y11.454 E17.85186
G1 X68.849 Y11.467 E17.8814
G1 X69.819 Y11.526 E17.91372
G1 X70.749 Y11.665 E17.94499
G1 X71.697 Y11.893 E17.97742
G1 X72.587 Y12.191 E18.00864
G1 X73.543 Y12.609 E18.04334
G1 X74.365 Y13.061 E18.07454
G1 X75.145 Y13.581 E18.10572
G1 X75.96 Y14.238 E18.14054
G1 X76.61 Y14.865 E18.17058
G1 X77.272 Y15.626 E18.20413
G1 X77.864 Y16.444 E18.23771
G1 X78.327 Y17.22 E18.26777
G1 X78.751 Y18.095 E18.30011
G1 X79.12 Y19.073 E18.33487
G1 X79.379 Y20.012 E18.36727
G1 X79.556 Y20.978 E18.39993
G1 X79.651 Y22.093 E18.43715
G1 X79.667 Y22.8 E18.46067
G1 X79.669 Y60.247 E19.70617
G1 X79.656 Y61.148 E19.73614
G1 X79.598 Y62.121 E19.76856
G1 X79.454 Y63.077 E19.80071
G1 X79.273 Y63.86 E19.82744
G1 X78.978 Y64.841 E19.86151
G1 X78.644 Y65.68 E19.89155
G1 X78.173 Y66.613 E19.92631
G1 X77.653 Y67.443 E19.95889
G1 X76.939 Y68.378 E19.99801
G1 X76.186 Y69.192 E20.0349
G1 X75.408 Y69.892 E20.0697
G1 X74.628 Y70.475 E20.10209
G1 X73.809 Y70.981 E20.13411
G1 X73.147 Y71.327 E20.15896
G1 X72.113 Y71.773 E20.19641
G1 X71.256 Y72.057 E20.22644
G1 X70.239 Y72.296 E20.26119
G1 X69.345 Y72.424 E20.29122
G1 X68.412 Y72.48 E20.32231
G1 X67.799 Y72.49 E20.3427
G1 X21.651 Y72.49 E21.87759
G1 X20.943 Y72.479 E21.90114
G1 X19.944 Y72.417 E21.93443
G1 X18.687 Y72.213 E21.97679
G1 X17.621 Y71.929 E22.01348
G1 X16.639 Y71.569 E22.04827
G1 X15.792 Y71.168 E22.07944
G1 X14.981 Y70.695 E22.11066
G1 X14.184 Y70.14 E22.14297
G1 X13.348 Y69.451 E22.179
G1 X12.703 Y68.819 E22.20903
G1 X12.025 Y68.024 E22.24378
G1 X11.502 Y67.288 E22.27381
G1 X10.991 Y66.417 E22.3074
G1 X10.548 Y65.473 E22.34208
G1 X10.422 Y65.163 E22.35321
G1 X10.093 Y64.246 E22.38562
G1 X9.863 Y63.373 E22.41564
G1 X9.687 Y62.335 E22.45066
G1 X9.607 Y61.186 E22.48897
G1 X9.596 Y60.491 E22.51209
G1 X9.593 Y22.971 E23.76001
G1 X9.605 Y22.264 E23.78353
G1 X9.665 Y21.292 E23.81592
G1 X9.798 Y20.399 E23.84595
G1 X10.033 Y19.417 E23.87953
G1 X10.343 Y18.495 E23.91188
G1 X10.735 Y17.602 E23.94432
G1 X11.204 Y16.749 E23.9767
G1 X11.726 Y15.969 E24.00791
G1 X12.381 Y15.156 E24.04264
G1 X13.033 Y14.482 E24.07383
G1 F2700 E19.07383
;MESH:test rig.STL
G0 F6000 X21.006 Y21.789
G0 X21.006 Y22.868
G0 X21.593 Y23.455
;TYPE:WALL-INNER
G1 F2700 E24.16945
G1 F1200 X21.595 Y60.491 E25.40127
G1 X67.669 Y60.491 E26.9337
G1 X67.667 Y23.455 E28.16552
G1 X56.122 Y23.456 E28.54951
G1 X55.904 Y23.51 E28.55698
G1 X55.678 Y23.755 E28.56807
G1 X55.636 Y23.885 E28.57261
G1 X55.603 Y24.343 E28.58788
G1 X55.541 Y24.629 E28.59762
G1 X55.367 Y25.085 E28.61385
G1 X55.081 Y25.526 E28.63133
G1 X54.631 Y25.98 E28.65259
G1 X54.02 Y26.3 E28.67553
G1 X53.722 Y26.398 E28.68597
G1 X53.172 Y26.454 E28.70435
G1 X47.75 Y26.453 E28.88469
G1 X48.182 Y26.604 E28.89991
G1 X48.712 Y26.824 E28.919
G1 X49.201 Y27.058 E28.93703
G1 X49.648 Y27.302 E28.95397
G1 X50.101 Y27.58 E28.97164
G1 X50.475 Y27.836 E28.98672
G1 X50.913 Y28.172 E29.00508
G1 X51.346 Y28.542 E29.02402
G1 X51.72 Y28.898 E29.0412
G1 X52.037 Y29.233 E29.05654
G1 X52.386 Y29.64 E29.07437
G1 X52.694 Y30.038 E29.09111
G1 X53.033 Y30.531 E29.11101
G1 X53.27 Y30.916 E29.12604
G1 X53.551 Y31.431 E29.14556
G1 X53.782 Y31.919 E29.16351
G1 X53.971 Y32.381 E29.18012
G1 X54.146 Y32.875 E29.19755
G1 X54.296 Y33.39 E29.21539
G1 X54.408 Y33.857 E29.23136
G1 X54.514 Y34.424 E29.25055
G1 X54.577 Y34.919 E29.26714
G1 X54.618 Y35.44 E29.28452
G1 X54.631 Y35.991 E29.30286
G1 X54.618 Y36.45 E29.31813
G1 X54.577 Y36.977 E29.33571
G1 X54.509 Y37.52 E29.35391
G1 X54.41 Y38.038 E29.37145
G1 X54.3 Y38.504 E29.38738
G1 X54.148 Y39.025 E29.40543
G1 X53.974 Y39.521 E29.42291
G1 X53.763 Y40.031 E29.44127
G1 X53.526 Y40.523 E29.45943
G1 X53.285 Y40.965 E29.47617
G1 X53.039 Y41.367 E29.49185
G1 X52.702 Y41.86 E29.51171
G1 X52.387 Y42.266 E29.5288
G1 X52.05 Y42.66 E29.54605
G1 X51.727 Y43.002 E29.56169
G1 X51.355 Y43.358 E29.57882
G1 X50.957 Y43.699 E29.59625
G1 X50.493 Y44.056 E29.61572
G1 X50.06 Y44.351 E29.63315
G1 X49.671 Y44.592 E29.64837
G1 X49.132 Y44.885 E29.66877
G1 X48.73 Y45.076 E29.68358
G1 X48.199 Y45.296 E29.70269
G1 X47.754 Y45.454 E29.7184
G1 X47.198 Y45.618 E29.73768
G1 X46.68 Y45.741 E29.75539
G1 X46.205 Y45.831 E29.77147
G1 X45.664 Y45.9 E29.78961
G1 X45.138 Y45.941 E29.80716
G1 X44.611 Y45.954 E29.82469
G1 X44.132 Y45.941 E29.84063
G1 X43.557 Y45.895 E29.85981
G1 X43.044 Y45.827 E29.87702
G1 X42.543 Y45.732 E29.89398
G1 X42.031 Y45.61 E29.91149
G1 X41.527 Y45.46 E29.92898
G1 X41.067 Y45.298 E29.9452
G1 X40.549 Y45.082 E29.96387
G1 X40.059 Y44.848 E29.98193
G1 X39.644 Y44.622 E29.99764
G1 X39.158 Y44.325 E30.01659
G1 X38.781 Y44.066 E30.0318
G1 X38.344 Y43.731 E30.05012
G1 X37.915 Y43.364 E30.06889
G1 X37.586 Y43.052 E30.08397
G1 X37.176 Y42.622 E30.10373
G1 X36.852 Y42.239 E30.12042
G1 X36.528 Y41.817 E30.13812
G1 X36.227 Y41.376 E30.15587
G1 X35.953 Y40.927 E30.17337
G1 X35.707 Y40.468 E30.19069
G1 X35.493 Y40.019 E30.20723
G1 X35.288 Y39.521 E30.22514
G1 X35.13 Y39.077 E30.24082
G1 X34.978 Y38.566 E30.25855
G1 X34.851 Y38.043 E30.27645
G1 X34.747 Y37.482 E30.29543
G1 X34.688 Y37.027 E30.31069
G1 X34.643 Y36.458 E30.32967
G1 X34.631 Y35.945 E30.34674
G1 X34.643 Y35.448 E30.36328
G1 X34.684 Y34.927 E30.38066
G1 X34.754 Y34.376 E30.39913
G1 X34.851 Y33.869 E30.4163
G1 X34.975 Y33.349 E30.43408
G1 X35.129 Y32.833 E30.45199
G1 X35.298 Y32.358 E30.46876
G1 X35.499 Y31.876 E30.48613
G1 X35.713 Y31.429 E30.50261
G1 X35.977 Y30.942 E30.52104
G1 X36.25 Y30.498 E30.53837
G1 X36.523 Y30.097 E30.55451
G1 X36.849 Y29.672 E30.57232
G1 X37.184 Y29.277 E30.58955
G1 X37.573 Y28.867 E30.60835
G1 X37.948 Y28.512 E30.62552
G1 X38.305 Y28.208 E30.64112
G1 X38.774 Y27.847 E30.6608
G1 X39.162 Y27.581 E30.67645
G1 X39.592 Y27.314 E30.69328
G1 X40.078 Y27.048 E30.71171
G1 X40.542 Y26.827 E30.7288
G1 X41.07 Y26.608 E30.74782
G1 X41.501 Y26.455 E30.76303
G1 X36.089 Y26.454 E30.94303
G1 X35.581 Y26.402 E30.96002
G1 X34.896 Y26.135 E30.98447
G1 X34.29 Y25.696 E31.00936
G1 X33.914 Y25.115 E31.03237
G1 X33.794 Y24.856 E31.04187
G1 X33.655 Y24.387 E31.05814
G1 X33.62 Y23.895 E31.07454
G1 X33.538 Y23.677 E31.08229
G1 X33.321 Y23.498 E31.09165
G1 X33.14 Y23.456 E31.09783
G1 X21.593 Y23.455 E31.48188
G0 F6000 X21.193 Y23.055
G1 F1200 X21.195 Y60.891 E32.74031
G1 X68.069 Y60.891 E34.29935
G1 X68.067 Y23.055 E35.55778
G1 X56.096 Y23.056 E35.95593
G1 X55.719 Y23.15 E35.96886
G1 X55.535 Y23.285 E35.97645
G1 X55.311 Y23.591 E35.98906
G1 X55.24 Y23.809 E35.99669
G1 X55.199 Y24.402 E36.01646
G1 X55.007 Y24.906 E36.0344
G1 X54.767 Y25.275 E36.04904
G1 X54.374 Y25.665 E36.06745
G1 X53.739 Y25.995 E36.09125
G1 X53.188 Y26.052 E36.10968
G1 F1185.2 X46.183 Y26.059 E36.34558
G1 F1253.3 X45.121 Y26.032 E36.37941
G1 F1348.3 X44.091 Y26.032 E36.4099
G1 F1253.3 X43.08 Y26.06 E36.44211
G1 F1185.2 X42.567 Y26.054 E36.45938
G1 F1200 X36.105 Y26.054 E36.67431
G1 X35.667 Y26.006 E36.68897
G1 X35.096 Y25.787 E36.70931
G1 X34.587 Y25.417 E36.73024
G1 X34.203 Y24.825 E36.75371
G1 X34.051 Y24.313 E36.77147
G1 X34.016 Y23.823 E36.78781
G1 X33.919 Y23.499 E36.79906
G1 X33.691 Y23.256 E36.81014
G1 X33.49 Y23.132 E36.818
G1 X33.166 Y23.056 E36.82906
G1 X21.193 Y23.055 E37.22729
G1 F2700 E32.22729
G0 F6000 X21.462 Y23.324
G0 X21.753 Y35.453
G0 X23.366 Y36.254
G0 X24.915 Y35.453
G1 F2700 E37.32291
G1 F1200 X25.534 Y35.483 E37.34352
G1 X25.977 Y35.638 E37.35913
G1 X26.407 Y35.899 E37.37586
G1 X26.594 Y36.072 E37.38434
G1 X26.917 Y36.534 E37.40309
G1 X27.107 Y37.08 E37.42231
G1 X27.109 Y37.838 E37.44752
G1 X26.92 Y38.358 E37.46593
G1 X26.615 Y38.812 E37.48412
G1 X26.066 Y39.24 E37.50727
G1 X25.511 Y39.43 E37.52678
G1 X24.88 Y39.432 E37.54777
G1 X24.589 Y39.375 E37.55763
G1 X24.265 Y39.26 E37.56907
G1 X23.91 Y39.042 E37.58292
G1 X23.664 Y38.808 E37.59422
G1 X23.489 Y38.586 E37.60362
G1 X23.332 Y38.316 E37.61401
G1 X23.211 Y37.986 E37.6257
G1 X23.127 Y37.453 E37.64364
G1 X23.153 Y37.195 E37.65227
G1 X23.218 Y36.888 E37.6627
G1 X23.331 Y36.594 E37.67318
G1 X23.488 Y36.323 E37.6836
G1 X23.644 Y36.12 E37.69211
G1 X23.979 Y35.823 E37.707
G1 X24.198 Y35.688 E37.71556
G1 X24.462 Y35.575 E37.72511
G1 X24.915 Y35.453 E37.74071
G0 F6000 X24.482 Y35.984
G1 F1200 X24.938 Y35.861 E37.75642
G1 X25.427 Y35.877 E37.7727
G1 X25.783 Y35.987 E37.78509
G1 X26.243 Y36.264 E37.80295
G1 X26.562 Y36.727 E37.82165
G1 X26.708 Y37.149 E37.8365
G1 X26.705 Y37.776 E37.85736
G1 X26.557 Y38.186 E37.87185
G1 X26.318 Y38.538 E37.886
G1 X25.86 Y38.886 E37.90514
G1 X25.442 Y39.031 E37.91985
G1 X24.819 Y39.032 E37.94057
G1 X24.399 Y38.883 E37.9554
G1 X24.186 Y38.752 E37.96371
G1 X23.878 Y38.459 E37.97785
G1 X23.621 Y38.017 E37.99486
G1 X23.521 Y37.386 E38.01611
G1 X23.629 Y36.879 E38.03335
G1 X23.878 Y36.447 E38.04993
G1 X24.188 Y36.164 E38.06389
G1 X24.482 Y35.984 E38.07536
G1 F2700 E33.07536
G0 F6000 X24.326 Y35.728
G0 X24.936 Y35.615
G0 X25.493 Y35.643
G0 X25.888 Y35.772
G0 X26.417 Y36.093
G0 X26.776 Y36.615
G0 X26.948 Y37.102
